; generated by PrusaSlicer 2.3.0+win64 on 2022-04-08 at 11:13:36 UTC

; 

; external perimeters extrusion width = 0.45mm
; perimeters extrusion width = 0.45mm
; infill extrusion width = 0.45mm
; solid infill extrusion width = 0.45mm
; top infill extrusion width = 0.40mm
; first layer extrusion width = 0.42mm

M73 P0 R96
M73 Q0 S97
M201 X1000 Y1000 Z200 E5000 ; sets maximum accelerations, mm/sec^2
M203 X200 Y200 Z12 E120 ; sets maximum feedrates, mm/sec
M204 P1250 R1250 T1250 ; sets acceleration (P, T) and retract acceleration (R), mm/sec^2
M205 X8.00 Y8.00 Z0.40 E4.50 ; sets the jerk limits, mm/sec
M205 S0 T0 ; sets the minimum extruding and travel feed rate, mm/sec
M107
;TYPE:Custom
M862.3 P "MK3S" ; printer model check
M862.1 P0.4 ; nozzle diameter check
M115 U3.9.2 ; tell printer latest fw version
G90 ; use absolute coordinates
M83 ; extruder relative mode
M104 S215 ; set extruder temp
M140 S60 ; set bed temp
M190 S60 ; wait for bed temp
M109 S215 ; wait for extruder temp
G28 W ; home all without mesh bed level
G80 ; mesh bed leveling
G1 Y-3.0 F1000.0 ; go outside print area
G92 E0.0
G1 X60.0 E9.0 F1000.0 ; intro line
G1 X100.0 E12.5 F1000.0 ; intro line
G92 E0.0
M221 S95

; Don't change E values below. Excessive value can damage the printer.
M907 E430 ; set extruder motor current
G21 ; set units to millimeters
G90 ; use absolute coordinates
M83 ; use relative distances for extrusion
M900 K0.05 ; Filament gcode LA 1.5
M900 K30 ; Filament gcode LA 1.0
;LAYER_CHANGE
;Z:0.2
;HEIGHT:0.2
;BEFORE_LAYER_CHANGE
G92 E0.0
;0.2


M73 Q0 S96
G1 E-0.80000 F2100.000
G1 Z0.400 F10800.000
;AFTER_LAYER_CHANGE
;0.2
G1 X99.211 Y84.258
G1 Z0.200
G1 E0.80000 F2100.000
M204 S1000
;TYPE:Skirt
;WIDTH:0.42
G1 F1200.000
G1 X99.976 Y84.123 E0.02437
G1 X150.004 Y84.123 E1.56858
G1 X150.892 Y84.297 E0.02837
G1 X151.653 Y84.792 E0.02849
G1 X152.172 Y85.534 E0.02837
G1 X152.376 Y86.415 E0.02837
G1 X152.376 Y123.557 E1.16456
G1 X152.306 Y124.077 E0.01645
G1 X152.125 Y124.565 E0.01633
G1 X151.842 Y125.002 E0.01633
G1 X151.471 Y125.368 E0.01633
G1 X150.789 Y125.742 E0.02437
G1 X150.024 Y125.877 E0.02437
G1 X99.981 Y125.877 E1.56906
G1 X99.453 Y125.813 E0.01668
G1 X98.955 Y125.635 E0.01657
G1 X98.506 Y125.349 E0.01668
G1 X98.132 Y124.971 E0.01669
G1 X97.759 Y124.293 E0.02426
G1 X97.623 Y123.532 E0.02426
G1 X97.623 Y86.477 E1.16181
G1 X97.688 Y85.949 E0.01668
G1 X97.867 Y85.452 E0.01657
G1 X98.151 Y85.006 E0.01657
G1 X98.529 Y84.632 E0.01669
G1 X99.158 Y84.287 E0.02249
; printing object GlassHolder v1.stl id:0 copy 0
;WIPE_START
G1 F8640.000
G1 X99.976 Y84.123 E-0.19266
G1 X102.433 Y84.123 E-0.56734
;WIPE_END
G1 E-0.04000 F2100.000
G1 Z0.600 F10800.000
G1 X100.787 Y87.287
G1 Z0.200
G1 E0.80000 F2100.000
;TYPE:Perimeter
G1 F1200.000
G1 X149.213 Y87.287 E1.51836
G1 X149.213 Y122.713 E1.11075
G1 X100.787 Y122.713 E1.51836
G1 X100.787 Y87.347 E1.10887
G1 X100.410 Y86.910 F10800.000
;TYPE:External perimeter
G1 F1200.000
G1 X149.590 Y86.910 E1.54200
G1 X149.590 Y123.090 E1.13440
M73 P0 R95
G1 X100.410 Y123.090 E1.54200
G1 X100.410 Y86.970 E1.13252
G1 X100.801 Y86.994 F10800.000
;WIPE_START
G1 F8640.000
G1 X103.701 Y86.966 E-0.76000
;WIPE_END
G1 E-0.04000 F2100.000
G1 Z0.600 F10800.000
G1 X148.335 Y87.400
G1 Z0.200
G1 E0.80000 F2100.000
;TYPE:Solid infill
;WIDTH:0.421288
G1 F1200.000
G1 X148.930 Y87.996 E0.02649
G1 X148.930 Y88.531 E0.01683
G1 X147.969 Y87.570 E0.04275
G1 X147.434 Y87.570 E0.01683
G1 X148.930 Y89.066 E0.06655
G1 X148.930 Y89.601 E0.01683
G1 X146.899 Y87.570 E0.09036
G1 X146.364 Y87.570 E0.01683
G1 X148.930 Y90.136 E0.11417
G1 X148.930 Y90.671 E0.01683
G1 X145.829 Y87.570 E0.13798
G1 X145.294 Y87.570 E0.01683
G1 X148.930 Y91.206 E0.16179
G1 X148.930 Y91.741 E0.01683
G1 X144.759 Y87.570 E0.18559
G1 X144.224 Y87.570 E0.01683
G1 X148.930 Y92.276 E0.20940
G1 X148.930 Y92.811 E0.01683
G1 X143.689 Y87.570 E0.23321
G1 X143.154 Y87.570 E0.01683
G1 X148.930 Y93.346 E0.25702
G1 X148.930 Y93.882 E0.01683
G1 X142.618 Y87.570 E0.28083
G1 X142.083 Y87.570 E0.01683
G1 X148.930 Y94.417 E0.30463
G1 X148.930 Y94.952 E0.01683
G1 X141.548 Y87.570 E0.32844
G1 X141.013 Y87.570 E0.01683
G1 X148.930 Y95.487 E0.35225
G1 X148.930 Y96.022 E0.01683
G1 X140.478 Y87.570 E0.37606
G1 X139.943 Y87.570 E0.01683
G1 X148.930 Y96.557 E0.39987
G1 X148.930 Y97.092 E0.01683
G1 X139.408 Y87.570 E0.42367
G1 X138.873 Y87.570 E0.01683
G1 X148.930 Y97.627 E0.44748
G1 X148.930 Y98.162 E0.01683
G1 X138.338 Y87.570 E0.47129
G1 X137.803 Y87.570 E0.01683
G1 X148.930 Y98.697 E0.49510
G1 X148.930 Y99.232 E0.01683
G1 X137.268 Y87.570 E0.51891
G1 X136.732 Y87.570 E0.01683
G1 X148.930 Y99.768 E0.54271
G1 X148.930 Y100.303 E0.01683
G1 X136.197 Y87.570 E0.56652
G1 X135.662 Y87.570 E0.01683
G1 X148.930 Y100.838 E0.59033
G1 X148.930 Y101.373 E0.01683
G1 X135.127 Y87.570 E0.61414
G1 X134.592 Y87.570 E0.01683
G1 X148.930 Y101.908 E0.63795
G1 X148.930 Y102.443 E0.01683
G1 X134.057 Y87.570 E0.66175
G1 X133.522 Y87.570 E0.01683
G1 X148.930 Y102.978 E0.68556
G1 X148.930 Y103.513 E0.01683
G1 X132.987 Y87.570 E0.70937
G1 X132.452 Y87.570 E0.01683
G1 X148.930 Y104.048 E0.73318
G1 X148.930 Y104.583 E0.01683
G1 X131.917 Y87.570 E0.75699
G1 X131.382 Y87.570 E0.01683
G1 X148.930 Y105.118 E0.78079
G1 X148.930 Y105.654 E0.01683
G1 X130.846 Y87.570 E0.80460
M73 P1 R95
M73 Q1 S96
G1 X130.311 Y87.570 E0.01683
G1 X148.930 Y106.189 E0.82841
G1 X148.930 Y106.724 E0.01683
G1 X129.776 Y87.570 E0.85222
G1 X129.241 Y87.570 E0.01683
G1 X148.930 Y107.259 E0.87603
G1 X148.930 Y107.794 E0.01683
G1 X128.706 Y87.570 E0.89983
G1 X128.171 Y87.570 E0.01683
G1 X148.930 Y108.329 E0.92364
M73 Q1 S95
G1 X148.930 Y108.864 E0.01683
G1 X127.636 Y87.570 E0.94745
G1 X127.101 Y87.570 E0.01683
G1 X148.930 Y109.399 E0.97126
G1 X148.930 Y109.934 E0.01683
G1 X126.566 Y87.570 E0.99507
G1 X126.031 Y87.570 E0.01683
G1 X148.930 Y110.469 E1.01887
G1 X148.930 Y111.005 E0.01683
G1 X125.495 Y87.570 E1.04268
G1 X124.960 Y87.570 E0.01683
G1 X148.930 Y111.540 E1.06649
G1 X148.930 Y112.075 E0.01683
G1 X124.425 Y87.570 E1.09030
G1 X123.890 Y87.570 E0.01683
G1 X148.930 Y112.610 E1.11411
G1 X148.930 Y113.145 E0.01683
G1 X123.355 Y87.570 E1.13791
G1 X122.820 Y87.570 E0.01683
G1 X148.930 Y113.680 E1.16172
G1 X148.930 Y114.215 E0.01683
G1 X122.285 Y87.570 E1.18553
G1 X121.750 Y87.570 E0.01683
G1 X148.930 Y114.750 E1.20934
G1 X148.930 Y115.285 E0.01683
G1 X121.215 Y87.570 E1.23315
G1 X120.680 Y87.570 E0.01683
G1 X148.930 Y115.820 E1.25695
M73 P1 R94
G1 X148.930 Y116.355 E0.01683
G1 X120.145 Y87.570 E1.28076
G1 X119.609 Y87.570 E0.01683
G1 X148.930 Y116.891 E1.30457
G1 X148.930 Y117.426 E0.01683
G1 X119.074 Y87.570 E1.32838
G1 X118.539 Y87.570 E0.01683
G1 X148.930 Y117.961 E1.35219
G1 X148.930 Y118.496 E0.01683
G1 X118.004 Y87.570 E1.37599
G1 X117.469 Y87.570 E0.01683
G1 X148.930 Y119.031 E1.39980
G1 X148.930 Y119.566 E0.01683
G1 X116.934 Y87.570 E1.42361
G1 X116.399 Y87.570 E0.01683
G1 X148.930 Y120.101 E1.44742
G1 X148.930 Y120.636 E0.01683
G1 X115.864 Y87.570 E1.47123
G1 X115.329 Y87.570 E0.01683
G1 X148.930 Y121.171 E1.49503
G1 X148.930 Y121.706 E0.01683
G1 X114.794 Y87.570 E1.51884
M73 P2 R94
G1 X114.259 Y87.570 E0.01683
G1 X148.930 Y122.241 E1.54265
M73 Q2 S95
G1 X148.930 Y122.430 E0.00594
G1 X148.584 Y122.430 E0.01090
G1 X113.723 Y87.570 E1.55104
G1 X113.188 Y87.570 E0.01683
G1 X148.049 Y122.430 E1.55104
G1 X147.513 Y122.430 E0.01683
G1 X112.653 Y87.570 E1.55104
M73 Q2 S94
G1 X112.118 Y87.570 E0.01683
G1 X146.978 Y122.430 E1.55104
G1 X146.443 Y122.430 E0.01683
G1 X111.583 Y87.570 E1.55104
G1 X111.048 Y87.570 E0.01683
G1 X145.908 Y122.430 E1.55104
G1 X145.373 Y122.430 E0.01683
G1 X110.513 Y87.570 E1.55104
G1 X109.978 Y87.570 E0.01683
G1 X144.838 Y122.430 E1.55104
G1 X144.303 Y122.430 E0.01683
G1 X109.443 Y87.570 E1.55104
G1 X108.908 Y87.570 E0.01683
G1 X143.768 Y122.430 E1.55104
G1 X143.233 Y122.430 E0.01683
G1 X108.373 Y87.570 E1.55104
G1 X107.837 Y87.570 E0.01683
G1 X142.698 Y122.430 E1.55104
G1 X142.163 Y122.430 E0.01683
G1 X107.302 Y87.570 E1.55104
M73 P2 R93
G1 X106.767 Y87.570 E0.01683
G1 X141.627 Y122.430 E1.55104
G1 X141.092 Y122.430 E0.01683
G1 X106.232 Y87.570 E1.55104
G1 X105.697 Y87.570 E0.01683
G1 X140.557 Y122.430 E1.55104
G1 X140.022 Y122.430 E0.01683
G1 X105.162 Y87.570 E1.55104
G1 X104.627 Y87.570 E0.01683
G1 X139.487 Y122.430 E1.55104
G1 X138.952 Y122.430 E0.01683
G1 X104.092 Y87.570 E1.55104
G1 X103.557 Y87.570 E0.01683
G1 X138.417 Y122.430 E1.55104
G1 X137.882 Y122.430 E0.01683
G1 X103.022 Y87.570 E1.55104
G1 X102.486 Y87.570 E0.01683
G1 X137.347 Y122.430 E1.55104
M73 P3 R93
G1 X136.812 Y122.430 E0.01683
G1 X101.951 Y87.570 E1.55104
M73 Q3 S94
G1 X101.416 Y87.570 E0.01683
G1 X136.277 Y122.430 E1.55104
G1 X135.741 Y122.430 E0.01683
G1 X101.070 Y87.759 E1.54265
G1 X101.070 Y88.294 E0.01683
G1 X135.206 Y122.430 E1.51884
G1 X134.671 Y122.430 E0.01683
G1 X101.070 Y88.829 E1.49503
M73 Q3 S93
G1 X101.070 Y89.364 E0.01683
G1 X134.136 Y122.430 E1.47122
G1 X133.601 Y122.430 E0.01683
G1 X101.070 Y89.899 E1.44742
G1 X101.070 Y90.434 E0.01683
G1 X133.066 Y122.430 E1.42361
G1 X132.531 Y122.430 E0.01683
G1 X101.070 Y90.969 E1.39980
G1 X101.070 Y91.504 E0.01683
G1 X131.996 Y122.430 E1.37599
G1 X131.461 Y122.430 E0.01683
G1 X101.070 Y92.039 E1.35218
G1 X101.070 Y92.574 E0.01683
G1 X130.926 Y122.430 E1.32838
G1 X130.391 Y122.430 E0.01683
G1 X101.070 Y93.109 E1.30457
G1 X101.070 Y93.645 E0.01683
G1 X129.855 Y122.430 E1.28076
G1 X129.320 Y122.430 E0.01683
G1 X101.070 Y94.180 E1.25695
G1 X101.070 Y94.715 E0.01683
G1 X128.785 Y122.430 E1.23314
M73 P3 R92
G1 X128.250 Y122.430 E0.01683
G1 X101.070 Y95.250 E1.20934
G1 X101.070 Y95.785 E0.01683
G1 X127.715 Y122.430 E1.18553
G1 X127.180 Y122.430 E0.01683
G1 X101.070 Y96.320 E1.16172
G1 X101.070 Y96.855 E0.01683
G1 X126.645 Y122.430 E1.13791
G1 X126.110 Y122.430 E0.01683
G1 X101.070 Y97.390 E1.11410
G1 X101.070 Y97.925 E0.01683
G1 X125.575 Y122.430 E1.09030
G1 X125.040 Y122.430 E0.01683
G1 X101.070 Y98.460 E1.06649
G1 X101.070 Y98.996 E0.01683
G1 X124.504 Y122.430 E1.04268
G1 X123.969 Y122.430 E0.01683
G1 X101.070 Y99.531 E1.01887
G1 X101.070 Y100.066 E0.01683
G1 X123.434 Y122.430 E0.99506
G1 X122.899 Y122.430 E0.01683
G1 X101.070 Y100.601 E0.97126
G1 X101.070 Y101.136 E0.01683
G1 X122.364 Y122.430 E0.94745
G1 X121.829 Y122.430 E0.01683
G1 X101.070 Y101.671 E0.92364
M73 P4 R92
M73 Q4 S93
G1 X101.070 Y102.206 E0.01683
G1 X121.294 Y122.430 E0.89983
G1 X120.759 Y122.430 E0.01683
G1 X101.070 Y102.741 E0.87602
G1 X101.070 Y103.276 E0.01683
G1 X120.224 Y122.430 E0.85222
G1 X119.689 Y122.430 E0.01683
G1 X101.070 Y103.811 E0.82841
G1 X101.070 Y104.346 E0.01683
G1 X119.154 Y122.430 E0.80460
G1 X118.618 Y122.430 E0.01683
G1 X101.070 Y104.882 E0.78079
G1 X101.070 Y105.417 E0.01683
G1 X118.083 Y122.430 E0.75698
G1 X117.548 Y122.430 E0.01683
G1 X101.070 Y105.952 E0.73318
G1 X101.070 Y106.487 E0.01683
G1 X117.013 Y122.430 E0.70937
G1 X116.478 Y122.430 E0.01683
G1 X101.070 Y107.022 E0.68556
G1 X101.070 Y107.557 E0.01683
G1 X115.943 Y122.430 E0.66175
M73 Q4 S92
G1 X115.408 Y122.430 E0.01683
G1 X101.070 Y108.092 E0.63794
G1 X101.070 Y108.627 E0.01683
G1 X114.873 Y122.430 E0.61414
G1 X114.338 Y122.430 E0.01683
G1 X101.070 Y109.162 E0.59033
G1 X101.070 Y109.697 E0.01683
G1 X113.803 Y122.430 E0.56652
G1 X113.268 Y122.430 E0.01683
G1 X101.070 Y110.232 E0.54271
G1 X101.070 Y110.768 E0.01683
G1 X112.732 Y122.430 E0.51890
G1 X112.197 Y122.430 E0.01683
G1 X101.070 Y111.303 E0.49510
G1 X101.070 Y111.838 E0.01683
G1 X111.662 Y122.430 E0.47129
G1 X111.127 Y122.430 E0.01683
G1 X101.070 Y112.373 E0.44748
G1 X101.070 Y112.908 E0.01683
G1 X110.592 Y122.430 E0.42367
G1 X110.057 Y122.430 E0.01683
G1 X101.070 Y113.443 E0.39986
G1 X101.070 Y113.978 E0.01683
G1 X109.522 Y122.430 E0.37606
G1 X108.987 Y122.430 E0.01683
G1 X101.070 Y114.513 E0.35225
G1 X101.070 Y115.048 E0.01683
G1 X108.452 Y122.430 E0.32844
G1 X107.917 Y122.430 E0.01683
G1 X101.070 Y115.583 E0.30463
G1 X101.070 Y116.118 E0.01683
G1 X107.382 Y122.430 E0.28082
G1 X106.846 Y122.430 E0.01683
G1 X101.070 Y116.654 E0.25702
G1 X101.070 Y117.189 E0.01683
G1 X106.311 Y122.430 E0.23321
G1 X105.776 Y122.430 E0.01683
G1 X101.070 Y117.724 E0.20940
G1 X101.070 Y118.259 E0.01683
G1 X105.241 Y122.430 E0.18559
G1 X104.706 Y122.430 E0.01683
G1 X101.070 Y118.794 E0.16178
G1 X101.070 Y119.329 E0.01683
G1 X104.171 Y122.430 E0.13798
G1 X103.636 Y122.430 E0.01683
G1 X101.070 Y119.864 E0.11417
G1 X101.070 Y120.399 E0.01683
G1 X103.101 Y122.430 E0.09036
G1 X102.566 Y122.430 E0.01683
G1 X101.070 Y120.934 E0.06655
G1 X101.070 Y121.469 E0.01683
G1 X102.031 Y122.430 E0.04274
G1 X101.495 Y122.430 E0.01683
G1 X100.900 Y121.835 E0.02649
; stop printing object GlassHolder v1.stl id:0 copy 0
M106 S84.15
;LAYER_CHANGE
;Z:0.35
;HEIGHT:0.15
;BEFORE_LAYER_CHANGE
G92 E0.0
;0.35


;WIPE_START
G1 F8640.000
G1 X101.495 Y122.430 E-0.19439
G1 X102.031 Y122.430 E-0.12355
G1 X101.070 Y121.469 E-0.31371
G1 X101.070 Y120.934 E-0.12355
G1 X101.085 Y120.949 E-0.00479
;WIPE_END
G1 E-0.04000 F2100.000
G1 Z0.600 F10800.000
;AFTER_LAYER_CHANGE
;0.35
M104 S210 ; set temperature
G1 X97.759 Y124.293
G1 Z0.350
G1 E0.80000 F2100.000
;TYPE:Skirt
;WIDTH:0.42
G1 F3000.000
G1 X97.623 Y123.532 E0.01871
G1 X97.623 Y86.477 E0.89616
G1 X97.688 Y85.949 E0.01287
G1 X97.867 Y85.452 E0.01278
G1 X98.151 Y85.006 E0.01278
G1 X98.529 Y84.632 E0.01287
G1 X99.211 Y84.258 E0.01880
G1 X99.976 Y84.123 E0.01880
G1 X150.004 Y84.123 E1.20992
G1 X150.892 Y84.297 E0.02188
G1 X151.653 Y84.792 E0.02197
G1 X152.172 Y85.534 E0.02188
G1 X152.376 Y86.415 E0.02188
G1 X152.376 Y123.557 E0.89827
G1 X152.306 Y124.077 E0.01269
G1 X152.125 Y124.565 E0.01260
G1 X151.842 Y125.002 E0.01260
G1 X151.471 Y125.368 E0.01260
G1 X150.789 Y125.742 E0.01880
G1 X150.024 Y125.877 E0.01880
G1 X99.981 Y125.877 E1.21028
G1 X99.453 Y125.813 E0.01287
G1 X98.955 Y125.635 E0.01278
G1 X98.506 Y125.349 E0.01287
G1 X98.132 Y124.971 E0.01287
G1 X97.788 Y124.346 E0.01726
; printing object GlassHolder v1.stl id:0 copy 0
;WIPE_START
G1 F8640.000
G1 X97.623 Y123.532 E-0.19179
G1 X97.623 Y121.071 E-0.56821
;WIPE_END
G1 E-0.04000 F2100.000
G1 Z0.750 F10800.000
G1 X100.643 Y122.857
G1 Z0.350
G1 E0.80000 F2100.000
M204 S800
;TYPE:Perimeter
;WIDTH:0.45
G1 F2700.000
G1 X100.643 Y87.143 E0.93057
G1 X149.357 Y87.143 E1.26929
G1 X149.357 Y122.857 E0.93057
M73 P4 R91
G1 X100.703 Y122.857 E1.26773
M204 S1000
G1 X100.225 Y123.275 F10800.000
M204 S800
;TYPE:External perimeter
G1 F1500.000
G1 X100.225 Y86.725 E0.95234
G1 X149.775 Y86.725 E1.29106
G1 X149.775 Y123.275 E0.95234
G1 X100.285 Y123.275 E1.28950
M204 S1000
G1 X100.348 Y122.894 F10800.000
;WIPE_START
G1 F8640.000
G1 X100.280 Y119.984 E-0.76000
;WIPE_END
G1 E-0.04000 F2100.000
G1 Z0.750 F10800.000
G1 X148.386 Y122.732
G1 Z0.350
G1 E0.80000 F2100.000
;TYPE:Solid infill
;WIDTH:0.450533
G1 F4800.000
G1 X149.044 Y122.074 E0.02427
G1 X149.044 Y121.483 E0.01543
G1 X147.983 Y122.544 E0.03916
G1 X147.391 Y122.544 E0.01543
G1 X149.044 Y120.891 E0.06099
G1 X149.044 Y120.299 E0.01543
G1 X146.799 Y122.544 E0.08281
G1 X146.208 Y122.544 E0.01543
G1 X149.044 Y119.708 E0.10464
G1 X149.044 Y119.116 E0.01543
G1 X145.616 Y122.544 E0.12647
G1 X145.024 Y122.544 E0.01543
G1 X149.044 Y118.524 E0.14830
G1 X149.044 Y117.933 E0.01543
G1 X144.433 Y122.544 E0.17013
G1 X143.841 Y122.544 E0.01543
G1 X149.044 Y117.341 E0.19196
G1 X149.044 Y116.749 E0.01543
G1 X143.249 Y122.544 E0.21378
G1 X142.658 Y122.544 E0.01543
G1 X149.044 Y116.158 E0.23561
G1 X149.044 Y115.566 E0.01543
G1 X142.066 Y122.544 E0.25744
G1 X141.475 Y122.544 E0.01543
G1 X149.044 Y114.975 E0.27927
G1 X149.044 Y114.383 E0.01543
G1 X140.883 Y122.544 E0.30110
G1 X140.291 Y122.544 E0.01543
G1 X149.044 Y113.791 E0.32293
G1 X149.044 Y113.200 E0.01543
G1 X139.700 Y122.544 E0.34475
G1 X139.108 Y122.544 E0.01543
G1 X149.044 Y112.608 E0.36658
G1 X149.044 Y112.016 E0.01543
G1 X138.516 Y122.544 E0.38841
G1 X137.925 Y122.544 E0.01543
G1 X149.044 Y111.425 E0.41024
G1 X149.044 Y110.833 E0.01543
G1 X137.333 Y122.544 E0.43207
G1 X136.742 Y122.544 E0.01543
G1 X149.044 Y110.242 E0.45390
G1 X149.044 Y109.650 E0.01543
