; generated by PrusaSlicer 2.2.0+win64 on 2022-01-27 at 13:09:10 UTC

; 

; external perimeters extrusion width = 0.45mm
; perimeters extrusion width = 0.45mm
; infill extrusion width = 0.45mm
; solid infill extrusion width = 0.45mm
; top infill extrusion width = 0.40mm
; first layer extrusion width = 0.42mm

M73 P0 R138
M73 Q0 S140
M201 X1000 Y1000 Z200 E5000 ; sets maximum accelerations, mm/sec^2
M203 X200 Y200 Z12 E120 ; sets maximum feedrates, mm/sec
M204 P1250 R1250 T1250 ; sets acceleration (P, T) and retract acceleration (R), mm/sec^2
M205 X8.00 Y8.00 Z0.40 E4.50 ; sets the jerk limits, mm/sec
M205 S0 T0 ; sets the minimum extruding and travel feed rate, mm/sec
M107
M862.3 P "MK3S" ; printer model check
M862.1 P0.4 ; nozzle diameter check
M115 U3.10.1 ; tell printer latest fw version
G90 ; use absolute coordinates
M83 ; extruder relative mode
M104 S240 ; set extruder temp
M140 S85 ; set bed temp
M190 S85 ; wait for bed temp
M109 S240 ; wait for extruder temp
G28 W ; home all without mesh bed level
G80 ; mesh bed leveling
G1 Y-3.0 F1000.0 ; go outside print area
G92 E0.0
G1 X60.0 E9.0 F1000.0 ; intro line
M73 Q0 S140
M73 P0 R138
G1 X100.0 E12.5 F1000.0 ; intro line
G92 E0.0
M221 S95

; Don't change E values below. Excessive value can damage the printer.
M907 E430 ; set extruder motor current
G21 ; set units to millimeters
G90 ; use absolute coordinates
M83 ; use relative distances for extrusion
M900 K0.08 ; Filament gcode LA 1.5
M900 K45 ; Filament gcode LA 1.0
;BEFORE_LAYER_CHANGE
G92 E0.0
;0.2


G1 E-1.40000 F2100.00000
G1 Z0.200 F10800.000
;AFTER_LAYER_CHANGE
;0.2
G1 Z0.400
G1 X91.832 Y61.823
G1 Z0.200
G1 E1.40000 F2100.00000
M204 S1000
G1 F1200.000
G1 X92.342 Y60.758 E0.03703
G1 X94.902 Y57.113 E0.13965
G1 X95.787 Y56.122 E0.04166
G1 X96.734 Y55.417 E0.03704
G1 X97.445 Y55.041 E0.02521
G1 X98.233 Y54.754 E0.02629
G1 X99.373 Y54.529 E0.03643
G1 X149.951 Y54.498 E1.58582
G1 X151.246 Y54.623 E0.04081
G1 X152.416 Y54.984 E0.03839
G1 X153.252 Y55.408 E0.02939
G1 X154.286 Y56.190 E0.04065
G1 X155.101 Y57.117 E0.03869
G1 X157.639 Y60.728 E0.13839
G1 X158.122 Y61.692 E0.03381
G1 X158.332 Y62.531 E0.02711
G1 X164.256 Y146.943 E2.65318
G1 X164.238 Y148.125 E0.03709
G1 X164.098 Y148.935 E0.02578
G1 X163.836 Y149.749 E0.02682
G1 X163.300 Y150.809 E0.03722
G1 X162.399 Y151.923 E0.04492
G1 X161.255 Y152.811 E0.04540
G1 X156.447 Y155.245 E0.16898
G1 X155.843 Y155.436 E0.01985
G1 X155.265 Y155.501 E0.01825
G1 X94.701 Y155.500 E1.89893
G1 X94.142 Y155.433 E0.01766
G1 X93.546 Y155.242 E0.01962
G1 X88.685 Y152.775 E0.17090
G1 X87.508 Y151.827 E0.04741
G1 X86.791 Y150.944 E0.03566
G1 X86.390 Y150.260 E0.02485
G1 X85.879 Y148.832 E0.04754
G1 X85.761 Y148.122 E0.02257
G1 X85.740 Y147.021 E0.03453
G1 X91.630 Y62.965 E2.64198
G1 X91.821 Y61.882 E0.03447
; printing object rpi2-top_30mm-fan_netfabb.stl id:0 copy 0
G1 F8640.000
G1 X92.342 Y60.758 E-0.28608
G1 X94.902 Y57.113 E-1.02846
G1 X94.947 Y57.064 E-0.01546
G1 E-0.07000 F2100.00000
G1 Z0.400 F10800.000
G1 X148.286 Y100.538
G1 Z0.200
G1 E1.40000 F2100.00000
G1 F1200.000
G1 X148.543 Y100.528 E0.00806
G1 X149.500 Y100.423 E0.03018
G1 X150.457 Y100.528 E0.03018
G1 X150.714 Y100.538 E0.00806
G1 X150.718 Y103.762 E0.10108
G1 X150.747 Y104.290 E0.01658
G1 X150.852 Y105.237 E0.02989
G1 X150.747 Y106.193 E0.03013
G1 X150.713 Y107.219 E0.03218
G1 X150.713 Y116.181 E0.28102
G1 X150.747 Y117.207 E0.03218
G1 X150.852 Y118.163 E0.03013
G1 X150.747 Y119.110 E0.02989
G1 X150.718 Y119.638 E0.01658
G1 X150.714 Y122.862 E0.10108
G1 X150.457 Y122.872 E0.00806
G1 X149.500 Y122.977 E0.03018
G1 X148.543 Y122.872 E0.03018
G1 X148.286 Y122.862 E0.00806
G1 X148.282 Y119.638 E0.10108
G1 X148.253 Y119.110 E0.01658
G1 X148.148 Y118.163 E0.02989
G1 X148.253 Y117.207 E0.03013
G1 X148.287 Y116.181 E0.03218
G1 X148.287 Y107.219 E0.28102
G1 X148.253 Y106.193 E0.03218
G1 X148.148 Y105.237 E0.03013
G1 X148.253 Y104.290 E0.02989
G1 X148.282 Y103.762 E0.01658
G1 X148.286 Y100.598 E0.09919
G1 F8640.000
G1 X148.543 Y100.528 E-0.06151
G1 X149.500 Y100.423 E-0.22226
G1 X150.457 Y100.528 E-0.22226
G1 X150.714 Y100.538 E-0.05939
G1 X150.718 Y103.762 E-0.74435
G1 X150.723 Y103.849 E-0.02022
G1 E-0.07000 F2100.00000
G1 Z0.400 F10800.000
G1 X148.286 Y96.012
G1 Z0.200
G1 E1.40000 F2100.00000
G1 F1200.000
G1 X148.282 Y92.788 E0.10108
G1 X148.253 Y92.260 E0.01658
G1 X148.148 Y91.313 E0.02990
G1 X148.253 Y90.357 E0.03013
G1 X148.287 Y89.331 E0.03218
G1 X148.287 Y80.369 E0.28102
G1 X148.253 Y79.343 E0.03218
G1 X148.148 Y78.387 E0.03013
G1 X148.253 Y77.440 E0.02989
G1 X148.282 Y76.912 E0.01658
G1 X148.286 Y73.688 E0.10108
G1 X148.543 Y73.678 E0.00806
G1 X149.500 Y73.573 E0.03018
G1 X150.457 Y73.678 E0.03018
G1 X150.714 Y73.688 E0.00806
G1 X150.718 Y76.912 E0.10108
G1 X150.747 Y77.440 E0.01658
G1 X150.852 Y78.387 E0.02989
G1 X150.747 Y79.343 E0.03013
G1 X150.713 Y80.369 E0.03218
G1 X150.713 Y89.331 E0.28102
G1 X150.747 Y90.357 E0.03218
G1 X150.852 Y91.313 E0.03013
G1 X150.747 Y92.260 E0.02990
G1 X150.718 Y92.788 E0.01658
G1 X150.714 Y96.012 E0.10108
G1 X150.457 Y96.022 E0.00806
G1 X149.500 Y96.127 E0.03018
G1 X148.346 Y96.014 E0.03635
G1 F8640.000
G1 X148.282 Y92.788 E-0.74503
G1 X148.253 Y92.260 E-0.12211
G1 X148.148 Y91.313 E-0.22016
G1 X148.253 Y90.357 E-0.22192
G1 X148.256 Y90.267 E-0.02079
G1 E-0.07000 F2100.00000
G1 Z0.400 F10800.000
G1 X118.132 Y109.673
G1 Z0.200
G1 E1.40000 F2100.00000
G1 F1200.000
G1 X118.213 Y109.974 E0.00978
G1 X118.237 Y110.251 E0.00870
G1 X118.237 Y111.119 E0.02724
G1 X118.213 Y111.396 E0.00870
G1 X118.132 Y111.697 E0.00978
G1 X118.000 Y111.980 E0.00978
G1 X117.821 Y112.236 E0.00978
G1 X117.601 Y112.456 E0.00978
G1 X117.345 Y112.635 E0.00978
G1 X117.062 Y112.767 E0.00978
G1 X116.761 Y112.848 E0.00978
G1 X116.484 Y112.872 E0.00870
G1 X100.416 Y112.872 E0.50382
G1 X100.139 Y112.848 E0.00870
G1 X99.838 Y112.767 E0.00978
G1 X99.555 Y112.635 E0.00978
G1 X99.299 Y112.456 E0.00978
G1 X99.079 Y112.236 E0.00978
G1 X98.900 Y111.980 E0.00978
G1 X98.768 Y111.697 E0.00978
G1 X98.687 Y111.396 E0.00978
G1 X98.663 Y111.119 E0.00870
G1 X98.663 Y110.251 E0.02724
G1 X98.687 Y109.974 E0.00870
G1 X98.768 Y109.673 E0.00978
G1 X98.900 Y109.390 E0.00978
G1 X99.079 Y109.134 E0.00978
G1 X99.299 Y108.914 E0.00978
G1 X99.555 Y108.735 E0.00978
G1 X99.838 Y108.603 E0.00978
G1 X100.139 Y108.522 E0.00978
G1 X100.416 Y108.498 E0.00870
G1 X116.484 Y108.498 E0.50382
G1 X116.761 Y108.522 E0.00870
G1 X117.062 Y108.603 E0.00978
G1 X117.345 Y108.735 E0.00978
G1 X117.601 Y108.914 E0.00978
G1 X117.821 Y109.134 E0.00978
G1 X118.000 Y109.390 E0.00978
G1 X118.107 Y109.618 E0.00790
G1 X117.765 Y109.778 F10800.000
G1 F1200.000
G1 X117.840 Y110.040 E0.00855
G1 X117.860 Y110.267 E0.00715
G1 X117.860 Y111.103 E0.02621
G1 X117.840 Y111.330 E0.00715
G1 X117.776 Y111.568 E0.00771
G1 X117.672 Y111.791 E0.00771
G1 X117.531 Y111.992 E0.00771
G1 X117.357 Y112.166 E0.00771
G1 X117.156 Y112.307 E0.00771
G1 X116.933 Y112.411 E0.00771
G1 X116.695 Y112.475 E0.00771
G1 X116.468 Y112.495 E0.00715
G1 X100.432 Y112.495 E0.50279
G1 X100.205 Y112.475 E0.00715
G1 X99.967 Y112.411 E0.00771
G1 X99.744 Y112.307 E0.00771
G1 X99.543 Y112.166 E0.00771
G1 X99.369 Y111.992 E0.00771
G1 X99.228 Y111.791 E0.00771
G1 X99.124 Y111.568 E0.00771
G1 X99.060 Y111.330 E0.00771
G1 X99.040 Y111.103 E0.00715
G1 X99.040 Y110.267 E0.02621
G1 X99.060 Y110.040 E0.00715
G1 X99.124 Y109.802 E0.00771
G1 X99.228 Y109.579 E0.00771
G1 X99.369 Y109.378 E0.00771
G1 X99.543 Y109.204 E0.00771
G1 X99.744 Y109.063 E0.00771
G1 X99.967 Y108.959 E0.00771
G1 X100.205 Y108.895 E0.00771
G1 X100.432 Y108.875 E0.00715
G1 X116.468 Y108.875 E0.50279
G1 X116.695 Y108.895 E0.00715
G1 X116.933 Y108.959 E0.00771
G1 X117.156 Y109.063 E0.00771
G1 X117.357 Y109.204 E0.00771
G1 X117.531 Y109.378 E0.00771
G1 X117.672 Y109.579 E0.00771
G1 X117.740 Y109.723 E0.00499
G1 X118.034 Y109.822 F10800.000
G1 F8640.000
G1 X117.840 Y110.040 E-0.07668
G1 X117.860 Y110.267 E-0.05266
G1 X117.860 Y111.103 E-0.19299
G1 X117.840 Y111.330 E-0.05266
G1 X117.776 Y111.568 E-0.05681
G1 X117.672 Y111.791 E-0.05681
G1 X117.531 Y111.992 E-0.05681
G1 X117.357 Y112.166 E-0.05681
G1 X117.156 Y112.307 E-0.05681
G1 X116.933 Y112.411 E-0.05681
G1 X116.695 Y112.475 E-0.05681
G1 X116.468 Y112.495 E-0.05267
G1 X114.282 Y112.495 E-0.50464
G1 E-0.07000 F2100.00000
G1 Z0.400 F10800.000
G1 X116.789 Y71.788
G1 Z0.200
G1 E1.40000 F2100.00000
G1 F1200.000
G1 X116.488 Y71.707 E0.00978
G1 X116.205 Y71.575 E0.00978
G1 X115.949 Y71.396 E0.00978
G1 X115.729 Y71.176 E0.00978
G1 X115.550 Y70.920 E0.00978
G1 X115.418 Y70.637 E0.00978
G1 X115.337 Y70.336 E0.00978
G1 X115.313 Y70.059 E0.00870
G1 X115.313 Y69.191 E0.02724
G1 X115.337 Y68.914 E0.00870
G1 X115.418 Y68.613 E0.00978
G1 X115.550 Y68.330 E0.00978
G1 X115.729 Y68.074 E0.00978
G1 X115.949 Y67.854 E0.00978
G1 X116.205 Y67.675 E0.00978
G1 X116.488 Y67.543 E0.00978
G1 X116.789 Y67.462 E0.00978
G1 X117.066 Y67.438 E0.00870
G1 X133.134 Y67.438 E0.50382
G1 X133.411 Y67.462 E0.00870
G1 X133.712 Y67.543 E0.00978
G1 X133.995 Y67.675 E0.00978
G1 X134.251 Y67.854 E0.00978
G1 X134.471 Y68.074 E0.00978
G1 X134.650 Y68.330 E0.00978
G1 X134.782 Y68.613 E0.00978
G1 X134.863 Y68.914 E0.00978
G1 X134.887 Y69.191 E0.00870
G1 X134.887 Y70.059 E0.02724
G1 X134.863 Y70.336 E0.00870
G1 X134.782 Y70.637 E0.00978
G1 X134.650 Y70.920 E0.00978
G1 X134.471 Y71.176 E0.00978
G1 X134.251 Y71.396 E0.00978
G1 X133.995 Y71.575 E0.00978
G1 X133.712 Y71.707 E0.00978
G1 X133.411 Y71.788 E0.00978
G1 X133.134 Y71.812 E0.00870
G1 X117.066 Y71.812 E0.50382
G1 X116.849 Y71.793 E0.00682
G1 X116.882 Y71.417 F10800.000
G1 F1200.000
G1 X116.617 Y71.351 E0.00855
G1 X116.394 Y71.247 E0.00771
G1 X116.193 Y71.106 E0.00772
G1 X116.019 Y70.932 E0.00771
G1 X115.878 Y70.731 E0.00771
G1 X115.774 Y70.508 E0.00771
G1 X115.710 Y70.270 E0.00771
G1 X115.690 Y70.043 E0.00715
G1 X115.690 Y69.207 E0.02621
G1 X115.710 Y68.980 E0.00715
G1 X115.774 Y68.742 E0.00771
G1 X115.878 Y68.519 E0.00771
G1 X116.019 Y68.318 E0.00771
G1 X116.193 Y68.144 E0.00772
G1 X116.394 Y68.003 E0.00771
G1 X116.617 Y67.899 E0.00771
G1 X116.855 Y67.835 E0.00771
G1 X117.082 Y67.815 E0.00715
G1 X133.118 Y67.815 E0.50279
G1 X133.345 Y67.835 E0.00715
G1 X133.583 Y67.899 E0.00771
G1 X133.806 Y68.003 E0.00771
G1 X134.007 Y68.144 E0.00771
G1 X134.181 Y68.318 E0.00772
G1 X134.322 Y68.519 E0.00771
G1 X134.426 Y68.742 E0.00771
G1 X134.490 Y68.980 E0.00771
G1 X134.510 Y69.207 E0.00715
G1 X134.510 Y70.043 E0.02621
G1 X134.490 Y70.270 E0.00715
G1 X134.426 Y70.508 E0.00771
G1 X134.322 Y70.731 E0.00771
G1 X134.181 Y70.932 E0.00771
G1 X134.007 Y71.106 E0.00771
G1 X133.806 Y71.247 E0.00772
G1 X133.583 Y71.351 E0.00771
G1 X133.345 Y71.415 E0.00771
G1 X133.118 Y71.435 E0.00715
G1 X116.942 Y71.423 E0.50720
G1 X116.709 Y71.628 F10800.000
G1 F8640.000
G1 X116.617 Y71.351 E-0.07668
G1 X116.394 Y71.247 E-0.05681
G1 X116.193 Y71.106 E-0.05682
G1 X116.019 Y70.932 E-0.05681
G1 X115.878 Y70.731 E-0.05681
G1 X115.774 Y70.508 E-0.05681
G1 X115.710 Y70.270 E-0.05681
G1 X115.690 Y70.043 E-0.05266
G1 X115.690 Y69.207 E-0.19299
G1 X115.710 Y68.980 E-0.05266
G1 X115.774 Y68.742 E-0.05681
G1 X115.878 Y68.519 E-0.05681
G1 X116.019 Y68.318 E-0.05681
G1 X116.193 Y68.144 E-0.05682
G1 X116.394 Y68.003 E-0.05681
G1 X116.617 Y67.899 E-0.05681
G1 X116.855 Y67.835 E-0.05681
G1 X117.082 Y67.815 E-0.05266
G1 X117.791 Y67.815 E-0.16376
G1 E-0.07000 F2100.00000
G1 Z0.400 F10800.000
G1 X115.188 Y79.559
G1 Z0.200
G1 E1.40000 F2100.00000
G1 F1200.000
G1 X115.424 Y79.349 E0.00993
G1 X116.117 Y78.801 E0.02770
G1 X116.841 Y78.294 E0.02770
G1 X117.593 Y77.830 E0.02770
G1 X118.370 Y77.411 E0.02770
G1 X119.171 Y77.038 E0.02770
G1 X119.992 Y76.712 E0.02770
G1 X120.831 Y76.434 E0.02770
G1 X121.684 Y76.205 E0.02770
G1 X122.549 Y76.026 E0.02770
G1 X123.423 Y75.898 E0.02770
G1 X124.303 Y75.821 E0.02770
G1 X125.138 Y75.797 E0.02618
G1 X126.069 Y75.821 E0.02919
G1 X126.950 Y75.898 E0.02773
G1 X127.824 Y76.026 E0.02770
G1 X128.689 Y76.205 E0.02770
G1 X129.542 Y76.434 E0.02770
G1 X130.381 Y76.712 E0.02770
G1 X131.202 Y77.038 E0.02770
G1 X132.003 Y77.411 E0.02770
G1 X132.780 Y77.830 E0.02770
G1 X133.532 Y78.294 E0.02770
G1 X134.256 Y78.801 E0.02770
G1 X134.949 Y79.349 E0.02770
G1 X135.185 Y79.559 E0.00993
G1 X135.128 Y79.346 E0.00693
G1 X135.096 Y78.983 E0.01142
G1 X135.128 Y78.620 E0.01142
G1 X135.222 Y78.268 E0.01142
G1 X135.376 Y77.938 E0.01142
G1 X135.585 Y77.640 E0.01142
G1 X135.843 Y77.382 E0.01142
G1 X136.141 Y77.173 E0.01142
G1 X136.472 Y77.019 E0.01142
G1 X136.824 Y76.925 E0.01142
G1 X137.153 Y76.896 E0.01036
G1 X137.545 Y76.923 E0.01231
G1 X137.901 Y77.019 E0.01158
G1 X138.232 Y77.173 E0.01142
G1 X138.530 Y77.382 E0.01142
G1 X138.788 Y77.640 E0.01142
G1 X138.997 Y77.938 E0.01142
G1 X139.151 Y78.268 E0.01142
G1 X139.245 Y78.620 E0.01142
G1 X139.277 Y78.983 E0.01142
G1 X139.245 Y79.346 E0.01142
G1 X139.151 Y79.698 E0.01142
G1 X138.997 Y80.028 E0.01142
G1 X138.788 Y80.327 E0.01142
G1 X138.530 Y80.584 E0.01142
G1 X138.232 Y80.793 E0.01142
G1 X137.901 Y80.947 E0.01142
G1 X137.549 Y81.041 E0.01142
G1 X137.187 Y81.073 E0.01142
G1 X136.824 Y81.041 E0.01142
G1 X136.610 Y80.984 E0.00692
G1 X136.821 Y81.221 E0.00993
G1 X137.369 Y81.914 E0.02770
G1 X137.875 Y82.637 E0.02770
G1 X138.339 Y83.389 E0.02770
G1 X138.758 Y84.167 E0.02770
G1 X139.132 Y84.968 E0.02770
G1 X139.458 Y85.789 E0.02770
G1 X139.736 Y86.627 E0.02770
G1 X139.965 Y87.481 E0.02770
G1 X140.133 Y88.298 E0.02618
G1 X140.271 Y89.219 E0.02919
G1 X140.348 Y90.100 E0.02773
G1 X140.374 Y90.983 E0.02770
G1 X140.348 Y91.866 E0.02770
G1 X140.271 Y92.746 E0.02770
G1 X140.143 Y93.620 E0.02770
G1 X139.965 Y94.486 E0.02770
G1 X139.736 Y95.339 E0.02770
G1 X139.458 Y96.177 E0.02770
G1 X139.132 Y96.998 E0.02770
G1 X138.758 Y97.799 E0.02770
G1 X138.339 Y98.577 E0.02770
G1 X137.875 Y99.329 E0.02770
G1 X137.369 Y100.052 E0.02770
G1 X136.821 Y100.745 E0.02770
G1 X136.610 Y100.982 E0.00993
G1 X136.824 Y100.925 E0.00693
G1 X137.153 Y100.896 E0.01036
G1 X137.545 Y100.923 E0.01232
G1 X137.901 Y101.019 E0.01158
G1 X138.232 Y101.173 E0.01142
G1 X138.530 Y101.382 E0.01142
G1 X138.788 Y101.640 E0.01142
G1 X138.997 Y101.938 E0.01142
G1 X139.151 Y102.268 E0.01142
G1 X139.245 Y102.620 E0.01142
G1 X139.277 Y102.983 E0.01142
G1 X139.245 Y103.346 E0.01142
G1 X139.151 Y103.698 E0.01142
G1 X138.997 Y104.028 E0.01142
G1 X138.788 Y104.327 E0.01142
G1 X138.530 Y104.584 E0.01142
G1 X138.232 Y104.793 E0.01142
G1 X137.901 Y104.947 E0.01142
G1 X137.549 Y105.041 E0.01142
G1 X137.187 Y105.073 E0.01142
G1 X136.824 Y105.041 E0.01142
G1 X136.472 Y104.947 E0.01142
G1 X136.141 Y104.793 E0.01142
G1 X135.843 Y104.584 E0.01142
G1 X135.585 Y104.327 E0.01142
G1 X135.376 Y104.028 E0.01142
G1 X135.237 Y103.729 E0.01036
G1 X135.129 Y103.351 E0.01231
G1 X135.096 Y102.983 E0.01158
G1 X135.128 Y102.620 E0.01142
G1 X135.185 Y102.407 E0.00693
G1 X134.949 Y102.617 E0.00993
G1 X134.256 Y103.165 E0.02770
G1 X133.532 Y103.672 E0.02770
G1 X132.780 Y104.136 E0.02770
G1 X132.003 Y104.555 E0.02770
G1 X131.202 Y104.928 E0.02770
G1 X130.381 Y105.255 E0.02770
G1 X129.542 Y105.532 E0.02770
G1 X128.689 Y105.761 E0.02770
G1 X127.824 Y105.940 E0.02770
G1 X126.950 Y106.068 E0.02770
G1 X126.070 Y106.145 E0.02770
G1 X125.187 Y106.170 E0.02770
G1 X124.303 Y106.145 E0.02770
G1 X123.423 Y106.068 E0.02770
G1 X122.549 Y105.940 E0.02770
G1 X121.684 Y105.761 E0.02770
G1 X120.831 Y105.532 E0.02770
G1 X119.992 Y105.255 E0.02770
G1 X119.171 Y104.928 E0.02770
G1 X118.370 Y104.555 E0.02770
G1 X117.593 Y104.136 E0.02770
G1 X116.841 Y103.672 E0.02770
G1 X116.117 Y103.165 E0.02770
G1 X115.424 Y102.617 E0.02770
G1 X115.188 Y102.407 E0.00993
G1 X115.236 Y102.587 E0.00586
G1 X115.277 Y102.978 E0.01231
G1 X115.245 Y103.346 E0.01158
G1 X115.151 Y103.698 E0.01142
G1 X114.997 Y104.028 E0.01142
G1 X114.788 Y104.327 E0.01142
G1 X114.530 Y104.584 E0.01142
G1 X114.232 Y104.793 E0.01142
G1 X113.932 Y104.933 E0.01036
G1 X113.555 Y105.041 E0.01231
G1 X113.187 Y105.073 E0.01158
G1 X112.824 Y105.041 E0.01142
G1 X112.472 Y104.947 E0.01142
G1 X112.141 Y104.793 E0.01142
G1 X111.843 Y104.584 E0.01142
