; generated by PrusaSlicer 2.3.0+win64 on 2022-04-08 at 10:01:22 UTC


;
;

;
;
; 

; external perimeters extrusion width = 0.45mm
; perimeters extrusion width = 0.45mm
; infill extrusion width = 0.45mm
; solid infill extrusion width = 0.45mm
; top infill extrusion width = 0.40mm
; first layer extrusion width = 0.42mm

M73 P0 R104
M201 X1250 Y1250 Z400 E5000 ; sets maximum accelerations, mm/sec^2
M203 X180 Y180 Z12 E80 ; sets maximum feedrates, mm/sec
M204 P1250 R1250 T1250 ; sets acceleration (P, T) and retract acceleration (R), mm/sec^2
M205 X8.00 Y8.00 Z2.00 E10.00 ; sets the jerk limits, mm/sec
M205 S0 T0 ; sets the minimum extruding and travel feed rate, mm/sec
M107
;TYPE:Custom
G90 ; use absolute coordinates
M83 ; extruder relative mode
M104 S170 ; set extruder temp for bed leveling
M140 S85 ; set bed temp
M109 R170 ; wait for bed leveling temp
M190 S85 ; wait for bed temp
G28 ; home all without mesh bed level
G29 ; mesh bed leveling 
M104 S230 ; set extruder temp
G92 E0.0
G1 Y-2.0 X179 F2400
G1 Z3 F720
M109 S230 ; wait for extruder temp

; intro line
G1 X170 F1000
G1 Z0.2 F720
G1 X110.0 E8.0 F900
G1 X40.0 E10.0 F700
G92 E0.0

M221 S95 ; set flow
G21 ; set units to millimeters
G90 ; use absolute coordinates
M83 ; use relative distances for extrusion
M900 K0.2 ; Filament gcode
;LAYER_CHANGE
;Z:0.2
;HEIGHT:0.2
;BEFORE_LAYER_CHANGE
G92 E0.0
;0.2


G1 Z0.200 F9000.000
;AFTER_LAYER_CHANGE
;0.2
G1 E-3.20000 F2400.000
G1 Z0.400 F9000.000
G1 X63.281 Y63.358
G1 Z0.200
G1 E3.20000 F1500.000
M204 S800
;TYPE:Skirt
;WIDTH:0.42
G1 F1200.000
G1 X64.016 Y62.836 E0.02825
G1 X64.892 Y62.625 E0.02825
G1 X115.004 Y62.623 E1.57123
G1 X115.888 Y62.795 E0.02825
G1 X116.642 Y63.281 E0.02813
G1 X117.164 Y64.016 E0.02825
G1 X117.375 Y64.892 E0.02825
G1 X117.377 Y115.000 E1.57109
G1 X117.196 Y115.909 E0.02907
G1 X116.681 Y116.680 E0.02907
G1 X115.910 Y117.196 E0.02907
G1 X115.001 Y117.377 E0.02907
G1 X114.092 Y117.197 E0.02907
G1 X113.319 Y116.681 E0.02912
G1 X63.303 Y66.665 E2.21780
G1 X62.800 Y65.899 E0.02872
G1 X62.623 Y65.001 E0.02872
G1 X62.793 Y64.116 E0.02825
G1 X63.249 Y63.409 E0.02637
M204 S1250
; printing object skjerm_feste 4mm.stl id:0 copy 0
G1 E-2.24000 F2400.000
;WIPE_START
G1 F7200.000
G1 X64.016 Y62.836 E-0.30305
G1 X64.892 Y62.625 E-0.28534
G1 X65.914 Y62.625 E-0.32361
;WIPE_END
G1 E-0.04800 F2400.000
G1 Z0.400 F9000.000
G1 X66.794 Y65.738
G1 Z0.200
G1 E3.20000 F1500.000
M204 S800
;TYPE:Perimeter
G1 F1200.000
G1 X66.953 Y65.760 E0.00505
G1 X67.992 Y65.787 E0.03259
G1 X114.213 Y65.787 E1.44921
G1 X114.213 Y112.008 E1.44921
M73 P0 R103
G1 X114.240 Y113.047 E0.03259
G1 X114.262 Y113.206 E0.00505
G1 X113.899 Y112.793 E0.01724
G1 X110.787 Y109.674 E0.13813
G1 X110.787 Y69.213 E1.26864
G1 X70.326 Y69.213 E1.26864
G1 X67.207 Y66.101 E0.13813
G1 X66.841 Y65.776 E0.01537
M204 S1250
G1 E-2.24000 F2400.000
;WIPE_START
G1 F7200.000
G1 X66.953 Y65.760 E-0.03612
G1 X67.992 Y65.787 E-0.32911
G1 X69.719 Y65.787 E-0.54677
;WIPE_END
G1 E-0.04800 F2400.000
G1 Z0.400 F9000.000
G1 X110.410 Y69.590
G1 Z0.200
G1 E3.20000 F1500.000
M204 S800
;TYPE:External perimeter
G1 F1200.000
G1 X70.170 Y69.590 E1.26171
G1 X66.948 Y66.376 E0.14268
G1 X66.582 Y66.050 E0.01538
G1 X65.802 Y65.505 E0.02982
G1 X65.508 Y65.211 E0.01305
G1 X65.978 Y65.210 E0.01473
G1 X66.464 Y65.314 E0.01559
G1 X66.983 Y65.383 E0.01642
G1 X67.997 Y65.410 E0.03180
G1 X114.590 Y65.410 E1.46088
G1 X114.590 Y112.003 E1.46088
G1 X114.617 Y113.017 E0.03180
G1 X114.686 Y113.536 E0.01642
G1 X114.790 Y114.022 E0.01559
G1 X114.789 Y114.492 E0.01473
G1 X114.495 Y114.198 E0.01305
G1 X113.950 Y113.418 E0.02982
G1 X113.624 Y113.052 E0.01538
G1 X110.410 Y109.830 E0.14268
G1 X110.410 Y69.650 E1.25983
M204 S1250
G1 X110.400 Y69.190 F9000.000
G1 E-2.24000 F2400.000
;WIPE_START
G1 F7200.000
G1 X107.530 Y69.646 E-0.91200
;WIPE_END
G1 E-0.04800 F2400.000
G1 Z0.400 F9000.000
G1 X113.336 Y65.900
G1 Z0.200
G1 E3.20000 F1500.000
M204 S800
;TYPE:Solid infill
;WIDTH:0.42057
G1 F1200.000
G1 X113.930 Y66.494 E0.02637
G1 X113.930 Y67.028 E0.01677
G1 X112.972 Y66.070 E0.04255
G1 X112.438 Y66.070 E0.01677
G1 X113.930 Y67.562 E0.06627
G1 X113.930 Y68.096 E0.01677
G1 X111.904 Y66.070 E0.08999
G1 X111.370 Y66.070 E0.01677
G1 X113.930 Y68.630 E0.11371
G1 X113.930 Y69.164 E0.01677
G1 X110.836 Y66.070 E0.13742
G1 X110.302 Y66.070 E0.01677
G1 X113.930 Y69.698 E0.16114
G1 X113.930 Y70.233 E0.01677
G1 X109.767 Y66.070 E0.18486
G1 X109.233 Y66.070 E0.01677
G1 X113.930 Y70.767 E0.20858
G1 X113.930 Y71.301 E0.01677
G1 X108.699 Y66.070 E0.23230
G1 X108.165 Y66.070 E0.01677
G1 X113.930 Y71.835 E0.25601
G1 X113.930 Y72.369 E0.01677
G1 X111.070 Y69.509 E0.12702
G1 X111.070 Y70.043 E0.01677
G1 X113.930 Y72.903 E0.12702
G1 X113.930 Y73.437 E0.01677
G1 X111.070 Y70.577 E0.12702
G1 X111.070 Y71.111 E0.01677
G1 X113.930 Y73.971 E0.12702
G1 X113.930 Y74.505 E0.01677
G1 X111.070 Y71.645 E0.12702
G1 X111.070 Y72.179 E0.01677
G1 X113.930 Y75.039 E0.12702
G1 X113.930 Y75.573 E0.01677
G1 X111.070 Y72.713 E0.12702
G1 X111.070 Y73.247 E0.01677
G1 X113.930 Y76.107 E0.12702
G1 X113.930 Y76.642 E0.01677
G1 X111.070 Y73.781 E0.12702
G1 X111.070 Y74.315 E0.01677
G1 X113.930 Y77.176 E0.12702
G1 X113.930 Y77.710 E0.01677
G1 X111.070 Y74.849 E0.12702
G1 X111.070 Y75.383 E0.01677
G1 X113.930 Y78.244 E0.12702
G1 X113.930 Y78.778 E0.01677
G1 X111.070 Y75.918 E0.12702
G1 X111.070 Y76.452 E0.01677
G1 X113.930 Y79.312 E0.12702
G1 X113.930 Y79.846 E0.01677
G1 X111.070 Y76.986 E0.12702
G1 X111.070 Y77.520 E0.01677
G1 X113.930 Y80.380 E0.12702
G1 X113.930 Y80.914 E0.01677
G1 X111.070 Y78.054 E0.12702
G1 X111.070 Y78.588 E0.01677
G1 X113.930 Y81.448 E0.12702
G1 X113.930 Y81.982 E0.01677
G1 X111.070 Y79.122 E0.12702
G1 X111.070 Y79.656 E0.01677
G1 X113.930 Y82.516 E0.12702
G1 X113.930 Y83.050 E0.01677
G1 X111.070 Y80.190 E0.12702
G1 X111.070 Y80.724 E0.01677
G1 X113.930 Y83.585 E0.12702
G1 X113.930 Y84.119 E0.01677
G1 X111.070 Y81.258 E0.12702
G1 X111.070 Y81.792 E0.01677
G1 X113.930 Y84.653 E0.12702
G1 X113.930 Y85.187 E0.01677
G1 X111.070 Y82.326 E0.12702
G1 X111.070 Y82.861 E0.01677
G1 X113.930 Y85.721 E0.12702
G1 X113.930 Y86.255 E0.01677
G1 X111.070 Y83.395 E0.12702
G1 X111.070 Y83.929 E0.01677
G1 X113.930 Y86.789 E0.12702
G1 X113.930 Y87.323 E0.01677
G1 X111.070 Y84.463 E0.12702
G1 X111.070 Y84.997 E0.01677
G1 X113.930 Y87.857 E0.12702
G1 X113.930 Y88.391 E0.01677
G1 X111.070 Y85.531 E0.12703
G1 X111.070 Y86.065 E0.01677
G1 X113.930 Y88.925 E0.12703
G1 X113.930 Y89.459 E0.01677
G1 X111.070 Y86.599 E0.12703
G1 X111.070 Y87.133 E0.01677
G1 X113.930 Y89.994 E0.12703
G1 X113.930 Y90.528 E0.01677
G1 X111.070 Y87.667 E0.12703
G1 X111.070 Y88.201 E0.01677
G1 X113.930 Y91.062 E0.12703
G1 X113.930 Y91.596 E0.01677
G1 X111.070 Y88.735 E0.12703
G1 X111.070 Y89.269 E0.01677
G1 X113.930 Y92.130 E0.12703
G1 X113.930 Y92.664 E0.01677
G1 X111.070 Y89.804 E0.12703
G1 X111.070 Y90.338 E0.01677
G1 X113.930 Y93.198 E0.12703
G1 X113.930 Y93.732 E0.01677
G1 X111.070 Y90.872 E0.12703
G1 X111.070 Y91.406 E0.01677
G1 X113.930 Y94.266 E0.12703
G1 X113.930 Y94.800 E0.01677
G1 X111.070 Y91.940 E0.12703
G1 X111.070 Y92.474 E0.01677
G1 X113.930 Y95.334 E0.12703
G1 X113.930 Y95.868 E0.01677
G1 X111.070 Y93.008 E0.12703
G1 X111.070 Y93.542 E0.01677
G1 X113.930 Y96.402 E0.12703
G1 X113.930 Y96.937 E0.01677
G1 X111.070 Y94.076 E0.12703
G1 X111.070 Y94.610 E0.01677
G1 X113.930 Y97.471 E0.12703
G1 X113.930 Y98.005 E0.01677
G1 X111.070 Y95.144 E0.12703
G1 X111.070 Y95.678 E0.01677
G1 X113.930 Y98.539 E0.12703
G1 X113.930 Y99.073 E0.01677
G1 X111.070 Y96.212 E0.12703
G1 X111.070 Y96.747 E0.01677
G1 X113.930 Y99.607 E0.12703
G1 X113.930 Y100.141 E0.01677
G1 X111.070 Y97.281 E0.12703
G1 X111.070 Y97.815 E0.01677
G1 X113.930 Y100.675 E0.12703
G1 X113.930 Y101.209 E0.01677
G1 X111.070 Y98.349 E0.12703
M73 P1 R103
G1 X111.070 Y98.883 E0.01677
G1 X113.930 Y101.743 E0.12703
G1 X113.930 Y102.277 E0.01677
G1 X111.070 Y99.417 E0.12703
G1 X111.070 Y99.951 E0.01677
G1 X113.930 Y102.811 E0.12703
G1 X113.930 Y103.346 E0.01677
G1 X111.070 Y100.485 E0.12703
G1 X111.070 Y101.019 E0.01677
G1 X113.930 Y103.880 E0.12703
G1 X113.930 Y104.414 E0.01677
G1 X111.070 Y101.553 E0.12703
G1 X111.070 Y102.087 E0.01677
G1 X113.930 Y104.948 E0.12703
G1 X113.930 Y105.482 E0.01677
G1 X111.070 Y102.621 E0.12703
G1 X111.070 Y103.155 E0.01677
G1 X113.930 Y106.016 E0.12703
G1 X113.930 Y106.550 E0.01677
G1 X111.070 Y103.690 E0.12703
G1 X111.070 Y104.224 E0.01677
G1 X113.930 Y107.084 E0.12703
G1 X113.930 Y107.618 E0.01677
G1 X111.070 Y104.758 E0.12703
G1 X111.070 Y105.292 E0.01677
G1 X113.930 Y108.152 E0.12703
G1 X113.930 Y108.686 E0.01677
G1 X111.070 Y105.826 E0.12703
G1 X111.070 Y106.360 E0.01677
G1 X113.930 Y109.220 E0.12703
G1 X113.930 Y109.754 E0.01677
G1 X111.070 Y106.894 E0.12703
G1 X111.070 Y107.428 E0.01677
G1 X113.930 Y110.289 E0.12703
G1 X113.930 Y110.823 E0.01677
G1 X111.070 Y107.962 E0.12703
G1 X111.070 Y108.496 E0.01677
G1 X113.930 Y111.357 E0.12703
G1 X113.930 Y111.891 E0.01677
G1 X110.900 Y108.861 E0.13457
M204 S1250
G1 E-2.24000 F2400.000
;WIPE_START
G1 F7200.000
G1 X112.937 Y110.897 E-0.91200
;WIPE_END
G1 E-0.04800 F2400.000
G1 Z0.400 F9000.000
G1 X110.661 Y69.100
G1 Z0.200
G1 E3.20000 F1500.000
M204 S800
G1 F1200.000
G1 X107.631 Y66.070 E0.13456
G1 X107.097 Y66.070 E0.01677
G1 X109.957 Y68.930 E0.12702
G1 X109.423 Y68.930 E0.01677
G1 X106.563 Y66.070 E0.12702
G1 X106.029 Y66.070 E0.01677
G1 X108.889 Y68.930 E0.12702
G1 X108.355 Y68.930 E0.01677
G1 X105.495 Y66.070 E0.12702
G1 X104.961 Y66.070 E0.01677
G1 X107.821 Y68.930 E0.12702
G1 X107.287 Y68.930 E0.01677
G1 X104.427 Y66.070 E0.12702
G1 X103.893 Y66.070 E0.01677
G1 X106.753 Y68.930 E0.12702
G1 X106.219 Y68.930 E0.01677
G1 X103.358 Y66.070 E0.12702
G1 X102.824 Y66.070 E0.01677
G1 X105.685 Y68.930 E0.12702
G1 X105.151 Y68.930 E0.01677
G1 X102.290 Y66.070 E0.12702
G1 X101.756 Y66.070 E0.01677
G1 X104.617 Y68.930 E0.12702
G1 X104.082 Y68.930 E0.01677
G1 X101.222 Y66.070 E0.12702
G1 X100.688 Y66.070 E0.01677
G1 X103.548 Y68.930 E0.12702
G1 X103.014 Y68.930 E0.01677
G1 X100.154 Y66.070 E0.12702
G1 X99.620 Y66.070 E0.01677
G1 X102.480 Y68.930 E0.12702
G1 X101.946 Y68.930 E0.01677
G1 X99.086 Y66.070 E0.12702
G1 X98.552 Y66.070 E0.01677
G1 X101.412 Y68.930 E0.12702
G1 X100.878 Y68.930 E0.01677
G1 X98.018 Y66.070 E0.12702
G1 X97.484 Y66.070 E0.01677
G1 X100.344 Y68.930 E0.12702
G1 X99.810 Y68.930 E0.01677
G1 X96.950 Y66.070 E0.12702
G1 X96.415 Y66.070 E0.01677
G1 X99.276 Y68.930 E0.12702
G1 X98.742 Y68.930 E0.01677
G1 X95.881 Y66.070 E0.12702
G1 X95.347 Y66.070 E0.01677
G1 X98.208 Y68.930 E0.12702
G1 X97.674 Y68.930 E0.01677
G1 X94.813 Y66.070 E0.12702
G1 X94.279 Y66.070 E0.01677
G1 X97.139 Y68.930 E0.12702
G1 X96.605 Y68.930 E0.01677
G1 X93.745 Y66.070 E0.12702
G1 X93.211 Y66.070 E0.01677
G1 X96.071 Y68.930 E0.12702
G1 X95.537 Y68.930 E0.01677
G1 X92.677 Y66.070 E0.12702
G1 X92.143 Y66.070 E0.01677
G1 X95.003 Y68.930 E0.12702
G1 X94.469 Y68.930 E0.01677
G1 X91.609 Y66.070 E0.12702
G1 X91.075 Y66.070 E0.01677
G1 X93.935 Y68.930 E0.12703
G1 X93.401 Y68.930 E0.01677
G1 X90.541 Y66.070 E0.12703
G1 X90.006 Y66.070 E0.01677
G1 X92.867 Y68.930 E0.12703
G1 X92.333 Y68.930 E0.01677
G1 X89.472 Y66.070 E0.12703
G1 X88.938 Y66.070 E0.01677
G1 X91.799 Y68.930 E0.12703
G1 X91.265 Y68.930 E0.01677
G1 X88.404 Y66.070 E0.12703
G1 X87.870 Y66.070 E0.01677
G1 X90.731 Y68.930 E0.12703
G1 X90.196 Y68.930 E0.01677
G1 X87.336 Y66.070 E0.12703
G1 X86.802 Y66.070 E0.01677
G1 X89.662 Y68.930 E0.12703
G1 X89.128 Y68.930 E0.01677
G1 X86.268 Y66.070 E0.12703
G1 X85.734 Y66.070 E0.01677
G1 X88.594 Y68.930 E0.12703
G1 X88.060 Y68.930 E0.01677
G1 X85.200 Y66.070 E0.12703
G1 X84.666 Y66.070 E0.01677
G1 X87.526 Y68.930 E0.12703
G1 X86.992 Y68.930 E0.01677
G1 X84.132 Y66.070 E0.12703
G1 X83.598 Y66.070 E0.01677
G1 X86.458 Y68.930 E0.12703
G1 X85.924 Y68.930 E0.01677
G1 X83.063 Y66.070 E0.12703
G1 X82.529 Y66.070 E0.01677
G1 X85.390 Y68.930 E0.12703
G1 X84.856 Y68.930 E0.01677
G1 X81.995 Y66.070 E0.12703
G1 X81.461 Y66.070 E0.01677
G1 X84.322 Y68.930 E0.12703
G1 X83.788 Y68.930 E0.01677
G1 X80.927 Y66.070 E0.12703
G1 X80.393 Y66.070 E0.01677
G1 X83.253 Y68.930 E0.12703
G1 X82.719 Y68.930 E0.01677
G1 X79.859 Y66.070 E0.12703
G1 X79.325 Y66.070 E0.01677
G1 X82.185 Y68.930 E0.12703
G1 X81.651 Y68.930 E0.01677
G1 X78.791 Y66.070 E0.12703
G1 X78.257 Y66.070 E0.01677
G1 X81.117 Y68.930 E0.12703
G1 X80.583 Y68.930 E0.01677
G1 X77.723 Y66.070 E0.12703
G1 X77.189 Y66.070 E0.01677
G1 X80.049 Y68.930 E0.12703
G1 X79.515 Y68.930 E0.01677
G1 X76.654 Y66.070 E0.12703
G1 X76.120 Y66.070 E0.01677
G1 X78.981 Y68.930 E0.12703
G1 X78.447 Y68.930 E0.01677
G1 X75.586 Y66.070 E0.12703
G1 X75.052 Y66.070 E0.01677
G1 X77.913 Y68.930 E0.12703
G1 X77.379 Y68.930 E0.01677
G1 X74.518 Y66.070 E0.12703
G1 X73.984 Y66.070 E0.01677
G1 X76.845 Y68.930 E0.12703
G1 X76.310 Y68.930 E0.01677
G1 X73.450 Y66.070 E0.12703
G1 X72.916 Y66.070 E0.01677
G1 X75.776 Y68.930 E0.12703
G1 X75.242 Y68.930 E0.01677
G1 X72.382 Y66.070 E0.12703
G1 X71.848 Y66.070 E0.01677
G1 X74.708 Y68.930 E0.12703
G1 X74.174 Y68.930 E0.01677
G1 X71.314 Y66.070 E0.12703
G1 X70.780 Y66.070 E0.01677
G1 X73.640 Y68.930 E0.12703
G1 X73.106 Y68.930 E0.01677
G1 X70.246 Y66.070 E0.12703
G1 X69.711 Y66.070 E0.01677
G1 X72.572 Y68.930 E0.12703
G1 X72.038 Y68.930 E0.01677
G1 X69.177 Y66.070 E0.12703
G1 X68.643 Y66.070 E0.01677
G1 X71.504 Y68.930 E0.12703
G1 X70.970 Y68.930 E0.01677
G1 X67.938 Y65.899 E0.13463
M204 S1250
G1 E-2.24000 F2400.000
;WIPE_START
G1 F7200.000
G1 X69.975 Y67.935 E-0.91200
;WIPE_END
G1 E-0.04800 F2400.000
G1 Z0.400 F9000.000
G1 X66.617 Y65.674
G1 Z0.200
G1 E3.20000 F1500.000
M204 S800
;TYPE:Gap fill
;WIDTH:0.229971
G1 F1200.000
G1 X66.078 Y65.452 E0.00905
M204 S1250
G1 E-2.24000 F2400.000
;WIPE_START
G1 F7200.000
G1 X66.617 Y65.674 E-0.18431
;WIPE_END
G1 E-0.77569 F2400.000
G1 Z0.400 F9000.000
G1 X114.326 Y113.383
G1 Z0.200
G1 E3.20000 F1500.000
M204 S800
;WIDTH:0.22997
G1 F1200.000
G1 X114.548 Y113.922 E0.00905
M204 S1250
; stop printing object skjerm_feste 4mm.stl id:0 copy 0
;LAYER_CHANGE
;Z:0.35
;HEIGHT:0.15
;BEFORE_LAYER_CHANGE
G92 E0.0
;0.35


G1 Z0.350 F9000.000
;AFTER_LAYER_CHANGE
;0.35
M104 S240 ; set temperature
M140 S90 ; set bed temperature
G1 E-3.20000 F2400.000
G1 Z0.550 F9000.000
G1 X114.092 Y117.197
G1 Z0.350
G1 E3.20000 F1500.000
;TYPE:Skirt
;WIDTH:0.42
G1 F2400.000
G1 X113.319 Y116.681 E0.02246
G1 X63.303 Y66.665 E1.71068
M73 P1 R102
G1 X62.800 Y65.899 E0.02215
G1 X62.623 Y65.001 E0.02215
G1 X62.793 Y64.116 E0.02179
G1 X63.281 Y63.358 E0.02179
G1 X64.016 Y62.836 E0.02179
G1 X64.892 Y62.625 E0.02179
G1 X115.004 Y62.623 E1.21195
G1 X115.888 Y62.795 E0.02179
G1 X116.642 Y63.281 E0.02170
G1 X117.164 Y64.016 E0.02179
G1 X117.375 Y64.892 E0.02179
G1 X117.377 Y115.000 E1.21185
G1 X117.196 Y115.909 E0.02242
G1 X116.681 Y116.680 E0.02242
G1 X115.910 Y117.196 E0.02242
G1 X115.001 Y117.377 E0.02242
G1 X114.150 Y117.208 E0.02097
; printing object skjerm_feste 4mm.stl id:0 copy 0
G1 E-2.24000
;WIPE_START
G1 F7200.000
G1 X113.319 Y116.681 E-0.31176
G1 X111.979 Y115.341 E-0.60024
;WIPE_END
G1 E-0.04800 F2400.000
G1 Z0.550 F9000.000
G1 X114.357 Y113.448
G1 Z0.350
G1 E3.20000 F1500.000
M204 S800
;TYPE:Perimeter
;WIDTH:0.45
G1 F2400.000
G1 X110.643 Y109.734 E0.13687
G1 X110.643 Y69.357 E1.05204
G1 X70.266 Y69.357 E1.05204
G1 X66.552 Y65.643 E0.13687
G1 X114.357 Y65.643 E1.24560
G1 X114.357 Y113.388 E1.24404
M204 S1250
G1 E-2.24000
;WIPE_START
G1 F7200.000
G1 X112.304 Y111.368 E-0.91200
;WIPE_END
G1 E-0.04800 F2400.000
G1 Z0.550 F9000.000
G1 X110.225 Y69.775
G1 Z0.350
G1 E3.20000 F1500.000
M204 S800
;TYPE:External perimeter
G1 F1800.000
G1 X70.093 Y69.775 E1.04566
G1 X65.543 Y65.225 E0.16766
G1 X114.775 Y65.225 E1.28277
G1 X114.775 Y114.457 E1.28277
G1 X110.225 Y109.907 E0.16766
G1 X110.225 Y69.835 E1.04410
M204 S1250
G1 X110.211 Y69.375 F9000.000
G1 E-2.24000 F2400.000
;WIPE_START
G1 F7200.000
G1 X107.345 Y69.831 E-0.91200
;WIPE_END
G1 E-0.04800 F2400.000
G1 Z0.550 F9000.000
G1 X113.702 Y112.616
G1 Z0.350
G1 E3.20000 F1500.000
