; generated by PrusaSlicer 2.3.0+win64 on 2022-04-08 at 10:16:41 UTC


;
;

;
;
; 

; external perimeters extrusion width = 0.45mm
; perimeters extrusion width = 0.45mm
; infill extrusion width = 0.45mm
; solid infill extrusion width = 0.45mm
; top infill extrusion width = 0.40mm
; first layer extrusion width = 0.42mm

M73 P0 R93
M201 X1250 Y1250 Z400 E5000 ; sets maximum accelerations, mm/sec^2
M203 X180 Y180 Z12 E80 ; sets maximum feedrates, mm/sec
M204 P1250 R1250 T1250 ; sets acceleration (P, T) and retract acceleration (R), mm/sec^2
M205 X8.00 Y8.00 Z2.00 E10.00 ; sets the jerk limits, mm/sec
M205 S0 T0 ; sets the minimum extruding and travel feed rate, mm/sec
M107
;TYPE:Custom
G90 ; use absolute coordinates
M83 ; extruder relative mode
M104 S170 ; set extruder temp for bed leveling
M140 S60 ; set bed temp
M109 R170 ; wait for bed leveling temp
M190 S60 ; wait for bed temp
G28 ; home all without mesh bed level
G29 ; mesh bed leveling 
M104 S215 ; set extruder temp
G92 E0.0
G1 Y-2.0 X179 F2400
G1 Z3 F720
M109 S215 ; wait for extruder temp

; intro line
G1 X170 F1000
G1 Z0.2 F720
G1 X110.0 E8.0 F900
G1 X40.0 E10.0 F700
G92 E0.0

M221 S95 ; set flow
G21 ; set units to millimeters
G90 ; use absolute coordinates
M83 ; use relative distances for extrusion
M900 K0.2 ; Filament gcode LA 1.5
; ; Filament gcode LA 1.0
;LAYER_CHANGE
;Z:0.2
;HEIGHT:0.2
;BEFORE_LAYER_CHANGE
G92 E0.0
;0.2


G1 Z0.200 F9000.000
;AFTER_LAYER_CHANGE
;0.2
G1 E-3.20000 F4200.000
G1 Z0.400 F9000.000
G1 X64.211 Y69.258
G1 Z0.200
G1 E3.20000 F2400.000
M204 S800
;TYPE:Skirt
;WIDTH:0.42
G1 F1200.000
G1 X64.976 Y69.123 E0.02437
G1 X115.004 Y69.123 E1.56858
G1 X115.892 Y69.297 E0.02837
G1 X116.653 Y69.792 E0.02849
G1 X117.172 Y70.534 E0.02837
G1 X117.376 Y71.415 E0.02837
G1 X117.376 Y108.557 E1.16456
G1 X117.306 Y109.077 E0.01645
G1 X117.125 Y109.565 E0.01633
G1 X116.842 Y110.002 E0.01633
G1 X116.471 Y110.368 E0.01633
G1 X115.789 Y110.742 E0.02437
G1 X115.024 Y110.877 E0.02437
G1 X64.981 Y110.877 E1.56906
G1 X64.453 Y110.813 E0.01668
G1 X63.955 Y110.635 E0.01657
G1 X63.506 Y110.349 E0.01668
G1 X63.132 Y109.971 E0.01669
G1 X62.759 Y109.293 E0.02426
G1 X62.623 Y108.532 E0.02426
G1 X62.623 Y71.477 E1.16181
G1 X62.688 Y70.949 E0.01668
G1 X62.867 Y70.452 E0.01657
G1 X63.151 Y70.006 E0.01657
G1 X63.529 Y69.632 E0.01669
G1 X64.158 Y69.287 E0.02249
M204 S1250
; printing object GlassHolder v1.stl id:0 copy 0
G1 E-2.24000 F4200.000
;WIPE_START
G1 F7200.000
G1 X64.976 Y69.123 E-0.46237
G1 X65.787 Y69.123 E-0.44963
;WIPE_END
G1 E-0.04800 F4200.000
G1 Z0.400 F9000.000
G1 X65.787 Y72.287
G1 Z0.200
G1 E3.20000 F2400.000
M204 S800
;TYPE:Perimeter
G1 F1200.000
G1 X114.213 Y72.287 E1.51836
G1 X114.213 Y107.713 E1.11075
G1 X65.787 Y107.713 E1.51836
G1 X65.787 Y72.347 E1.10887
M204 S1250
G1 X65.410 Y71.910 F9000.000
M204 S800
;TYPE:External perimeter
G1 F1200.000
G1 X114.590 Y71.910 E1.54200
G1 X114.590 Y108.090 E1.13440
G1 X65.410 Y108.090 E1.54200
G1 X65.410 Y71.970 E1.13252
M204 S1250
G1 X65.801 Y71.994 F9000.000
G1 E-2.24000 F4200.000
;WIPE_START
G1 F7200.000
G1 X67.056 Y71.968 E-0.91200
;WIPE_END
G1 E-0.04800 F4200.000
G1 Z0.400 F9000.000
G1 X113.335 Y72.400
G1 Z0.200
G1 E3.20000 F2400.000
M204 S800
;TYPE:Solid infill
;WIDTH:0.421288
G1 F1200.000
G1 X113.930 Y72.996 E0.02649
G1 X113.930 Y73.531 E0.01683
G1 X112.969 Y72.570 E0.04275
M73 P0 R92
G1 X112.434 Y72.570 E0.01683
G1 X113.930 Y74.066 E0.06655
G1 X113.930 Y74.601 E0.01683
G1 X111.899 Y72.570 E0.09036
G1 X111.364 Y72.570 E0.01683
G1 X113.930 Y75.136 E0.11417
G1 X113.930 Y75.671 E0.01683
G1 X110.829 Y72.570 E0.13798
G1 X110.294 Y72.570 E0.01683
G1 X113.930 Y76.206 E0.16179
G1 X113.930 Y76.741 E0.01683
G1 X109.759 Y72.570 E0.18559
G1 X109.224 Y72.570 E0.01683
G1 X113.930 Y77.276 E0.20940
G1 X113.930 Y77.811 E0.01683
G1 X108.689 Y72.570 E0.23321
G1 X108.154 Y72.570 E0.01683
G1 X113.930 Y78.346 E0.25702
G1 X113.930 Y78.882 E0.01683
G1 X107.618 Y72.570 E0.28083
G1 X107.083 Y72.570 E0.01683
G1 X113.930 Y79.417 E0.30463
G1 X113.930 Y79.952 E0.01683
G1 X106.548 Y72.570 E0.32844
G1 X106.013 Y72.570 E0.01683
G1 X113.930 Y80.487 E0.35225
G1 X113.930 Y81.022 E0.01683
G1 X105.478 Y72.570 E0.37606
G1 X104.943 Y72.570 E0.01683
G1 X113.930 Y81.557 E0.39987
G1 X113.930 Y82.092 E0.01683
G1 X104.408 Y72.570 E0.42367
G1 X103.873 Y72.570 E0.01683
G1 X113.930 Y82.627 E0.44748
G1 X113.930 Y83.162 E0.01683
G1 X103.338 Y72.570 E0.47129
G1 X102.803 Y72.570 E0.01683
G1 X113.930 Y83.697 E0.49510
G1 X113.930 Y84.232 E0.01683
G1 X102.268 Y72.570 E0.51891
G1 X101.732 Y72.570 E0.01683
G1 X113.930 Y84.768 E0.54271
G1 X113.930 Y85.303 E0.01683
G1 X101.197 Y72.570 E0.56652
M73 P1 R92
G1 X100.662 Y72.570 E0.01683
G1 X113.930 Y85.838 E0.59033
G1 X113.930 Y86.373 E0.01683
G1 X100.127 Y72.570 E0.61414
G1 X99.592 Y72.570 E0.01683
G1 X113.930 Y86.908 E0.63795
G1 X113.930 Y87.443 E0.01683
G1 X99.057 Y72.570 E0.66175
G1 X98.522 Y72.570 E0.01683
G1 X113.930 Y87.978 E0.68556
G1 X113.930 Y88.513 E0.01683
G1 X97.987 Y72.570 E0.70937
G1 X97.452 Y72.570 E0.01683
G1 X113.930 Y89.048 E0.73318
G1 X113.930 Y89.583 E0.01683
G1 X96.917 Y72.570 E0.75699
G1 X96.382 Y72.570 E0.01683
G1 X113.930 Y90.118 E0.78079
G1 X113.930 Y90.654 E0.01683
G1 X95.846 Y72.570 E0.80460
G1 X95.311 Y72.570 E0.01683
G1 X113.930 Y91.189 E0.82841
G1 X113.930 Y91.724 E0.01683
G1 X94.776 Y72.570 E0.85222
G1 X94.241 Y72.570 E0.01683
G1 X113.930 Y92.259 E0.87603
G1 X113.930 Y92.794 E0.01683
G1 X93.706 Y72.570 E0.89983
G1 X93.171 Y72.570 E0.01683
G1 X113.930 Y93.329 E0.92364
G1 X113.930 Y93.864 E0.01683
G1 X92.636 Y72.570 E0.94745
G1 X92.101 Y72.570 E0.01683
G1 X113.930 Y94.399 E0.97126
G1 X113.930 Y94.934 E0.01683
G1 X91.566 Y72.570 E0.99507
G1 X91.031 Y72.570 E0.01683
G1 X113.930 Y95.469 E1.01887
G1 X113.930 Y96.005 E0.01683
G1 X90.495 Y72.570 E1.04268
G1 X89.960 Y72.570 E0.01683
G1 X113.930 Y96.540 E1.06649
G1 X113.930 Y97.075 E0.01683
G1 X89.425 Y72.570 E1.09030
G1 X88.890 Y72.570 E0.01683
G1 X113.930 Y97.610 E1.11411
G1 X113.930 Y98.145 E0.01683
G1 X88.355 Y72.570 E1.13791
G1 X87.820 Y72.570 E0.01683
G1 X113.930 Y98.680 E1.16172
G1 X113.930 Y99.215 E0.01683
G1 X87.285 Y72.570 E1.18553
G1 X86.750 Y72.570 E0.01683
G1 X113.930 Y99.750 E1.20934
G1 X113.930 Y100.285 E0.01683
G1 X86.215 Y72.570 E1.23315
G1 X85.680 Y72.570 E0.01683
G1 X113.930 Y100.820 E1.25695
G1 X113.930 Y101.355 E0.01683
G1 X85.145 Y72.570 E1.28076
G1 X84.609 Y72.570 E0.01683
G1 X113.930 Y101.891 E1.30457
G1 X113.930 Y102.426 E0.01683
G1 X84.074 Y72.570 E1.32838
M73 P1 R91
G1 X83.539 Y72.570 E0.01683
G1 X113.930 Y102.961 E1.35219
G1 X113.930 Y103.496 E0.01683
G1 X83.004 Y72.570 E1.37599
G1 X82.469 Y72.570 E0.01683
G1 X113.930 Y104.031 E1.39980
M73 P2 R91
G1 X113.930 Y104.566 E0.01683
G1 X81.934 Y72.570 E1.42361
G1 X81.399 Y72.570 E0.01683
G1 X113.930 Y105.101 E1.44742
G1 X113.930 Y105.636 E0.01683
G1 X80.864 Y72.570 E1.47123
G1 X80.329 Y72.570 E0.01683
G1 X113.930 Y106.171 E1.49503
G1 X113.930 Y106.706 E0.01683
G1 X79.794 Y72.570 E1.51884
G1 X79.259 Y72.570 E0.01683
G1 X113.930 Y107.241 E1.54265
G1 X113.930 Y107.430 E0.00594
G1 X113.584 Y107.430 E0.01090
G1 X78.723 Y72.570 E1.55104
G1 X78.188 Y72.570 E0.01683
G1 X113.049 Y107.430 E1.55104
G1 X112.513 Y107.430 E0.01683
G1 X77.653 Y72.570 E1.55104
G1 X77.118 Y72.570 E0.01683
G1 X111.978 Y107.430 E1.55104
G1 X111.443 Y107.430 E0.01683
G1 X76.583 Y72.570 E1.55104
G1 X76.048 Y72.570 E0.01683
G1 X110.908 Y107.430 E1.55104
G1 X110.373 Y107.430 E0.01683
G1 X75.513 Y72.570 E1.55104
G1 X74.978 Y72.570 E0.01683
G1 X109.838 Y107.430 E1.55104
G1 X109.303 Y107.430 E0.01683
G1 X74.443 Y72.570 E1.55104
G1 X73.908 Y72.570 E0.01683
G1 X108.768 Y107.430 E1.55104
G1 X108.233 Y107.430 E0.01683
G1 X73.373 Y72.570 E1.55104
G1 X72.837 Y72.570 E0.01683
G1 X107.698 Y107.430 E1.55104
G1 X107.163 Y107.430 E0.01683
G1 X72.302 Y72.570 E1.55104
G1 X71.767 Y72.570 E0.01683
G1 X106.627 Y107.430 E1.55104
G1 X106.092 Y107.430 E0.01683
G1 X71.232 Y72.570 E1.55104
M73 P2 R90
G1 X70.697 Y72.570 E0.01683
G1 X105.557 Y107.430 E1.55104
G1 X105.022 Y107.430 E0.01683
G1 X70.162 Y72.570 E1.55104
M73 P3 R90
G1 X69.627 Y72.570 E0.01683
G1 X104.487 Y107.430 E1.55104
G1 X103.952 Y107.430 E0.01683
G1 X69.092 Y72.570 E1.55104
G1 X68.557 Y72.570 E0.01683
G1 X103.417 Y107.430 E1.55104
G1 X102.882 Y107.430 E0.01683
G1 X68.022 Y72.570 E1.55104
G1 X67.486 Y72.570 E0.01683
G1 X102.347 Y107.430 E1.55104
G1 X101.812 Y107.430 E0.01683
G1 X66.951 Y72.570 E1.55104
G1 X66.416 Y72.570 E0.01683
G1 X101.277 Y107.430 E1.55104
G1 X100.741 Y107.430 E0.01683
G1 X66.070 Y72.759 E1.54265
G1 X66.070 Y73.294 E0.01683
G1 X100.206 Y107.430 E1.51884
G1 X99.671 Y107.430 E0.01683
G1 X66.070 Y73.829 E1.49503
G1 X66.070 Y74.364 E0.01683
G1 X99.136 Y107.430 E1.47122
G1 X98.601 Y107.430 E0.01683
G1 X66.070 Y74.899 E1.44742
G1 X66.070 Y75.434 E0.01683
G1 X98.066 Y107.430 E1.42361
G1 X97.531 Y107.430 E0.01683
G1 X66.070 Y75.969 E1.39980
G1 X66.070 Y76.504 E0.01683
G1 X96.996 Y107.430 E1.37599
G1 X96.461 Y107.430 E0.01683
G1 X66.070 Y77.039 E1.35218
G1 X66.070 Y77.574 E0.01683
G1 X95.926 Y107.430 E1.32838
G1 X95.391 Y107.430 E0.01683
G1 X66.070 Y78.109 E1.30457
G1 X66.070 Y78.645 E0.01683
G1 X94.855 Y107.430 E1.28076
G1 X94.320 Y107.430 E0.01683
G1 X66.070 Y79.180 E1.25695
G1 X66.070 Y79.715 E0.01683
G1 X93.785 Y107.430 E1.23314
G1 X93.250 Y107.430 E0.01683
G1 X66.070 Y80.250 E1.20934
G1 X66.070 Y80.785 E0.01683
G1 X92.715 Y107.430 E1.18553
G1 X92.180 Y107.430 E0.01683
G1 X66.070 Y81.320 E1.16172
M73 P4 R89
G1 X66.070 Y81.855 E0.01683
G1 X91.645 Y107.430 E1.13791
G1 X91.110 Y107.430 E0.01683
G1 X66.070 Y82.390 E1.11410
G1 X66.070 Y82.925 E0.01683
G1 X90.575 Y107.430 E1.09030
G1 X90.040 Y107.430 E0.01683
G1 X66.070 Y83.460 E1.06649
G1 X66.070 Y83.996 E0.01683
G1 X89.504 Y107.430 E1.04268
G1 X88.969 Y107.430 E0.01683
G1 X66.070 Y84.531 E1.01887
G1 X66.070 Y85.066 E0.01683
G1 X88.434 Y107.430 E0.99506
G1 X87.899 Y107.430 E0.01683
G1 X66.070 Y85.601 E0.97126
G1 X66.070 Y86.136 E0.01683
G1 X87.364 Y107.430 E0.94745
G1 X86.829 Y107.430 E0.01683
G1 X66.070 Y86.671 E0.92364
G1 X66.070 Y87.206 E0.01683
G1 X86.294 Y107.430 E0.89983
G1 X85.759 Y107.430 E0.01683
G1 X66.070 Y87.741 E0.87602
G1 X66.070 Y88.276 E0.01683
G1 X85.224 Y107.430 E0.85222
G1 X84.689 Y107.430 E0.01683
G1 X66.070 Y88.811 E0.82841
G1 X66.070 Y89.346 E0.01683
G1 X84.154 Y107.430 E0.80460
G1 X83.618 Y107.430 E0.01683
G1 X66.070 Y89.882 E0.78079
G1 X66.070 Y90.417 E0.01683
G1 X83.083 Y107.430 E0.75698
G1 X82.548 Y107.430 E0.01683
G1 X66.070 Y90.952 E0.73318
G1 X66.070 Y91.487 E0.01683
G1 X82.013 Y107.430 E0.70937
G1 X81.478 Y107.430 E0.01683
G1 X66.070 Y92.022 E0.68556
G1 X66.070 Y92.557 E0.01683
G1 X80.943 Y107.430 E0.66175
G1 X80.408 Y107.430 E0.01683
G1 X66.070 Y93.092 E0.63794
G1 X66.070 Y93.627 E0.01683
G1 X79.873 Y107.430 E0.61414
G1 X79.338 Y107.430 E0.01683
G1 X66.070 Y94.162 E0.59033
G1 X66.070 Y94.697 E0.01683
G1 X78.803 Y107.430 E0.56652
G1 X78.268 Y107.430 E0.01683
G1 X66.070 Y95.232 E0.54271
G1 X66.070 Y95.768 E0.01683
G1 X77.732 Y107.430 E0.51890
G1 X77.197 Y107.430 E0.01683
G1 X66.070 Y96.303 E0.49510
G1 X66.070 Y96.838 E0.01683
G1 X76.662 Y107.430 E0.47129
G1 X76.127 Y107.430 E0.01683
G1 X66.070 Y97.373 E0.44748
G1 X66.070 Y97.908 E0.01683
G1 X75.592 Y107.430 E0.42367
G1 X75.057 Y107.430 E0.01683
G1 X66.070 Y98.443 E0.39986
G1 X66.070 Y98.978 E0.01683
G1 X74.522 Y107.430 E0.37606
G1 X73.987 Y107.430 E0.01683
G1 X66.070 Y99.513 E0.35225
G1 X66.070 Y100.048 E0.01683
G1 X73.452 Y107.430 E0.32844
G1 X72.917 Y107.430 E0.01683
G1 X66.070 Y100.583 E0.30463
G1 X66.070 Y101.118 E0.01683
G1 X72.382 Y107.430 E0.28082
G1 X71.846 Y107.430 E0.01683
G1 X66.070 Y101.654 E0.25702
G1 X66.070 Y102.189 E0.01683
G1 X71.311 Y107.430 E0.23321
G1 X70.776 Y107.430 E0.01683
G1 X66.070 Y102.724 E0.20940
G1 X66.070 Y103.259 E0.01683
G1 X70.241 Y107.430 E0.18559
G1 X69.706 Y107.430 E0.01683
G1 X66.070 Y103.794 E0.16178
G1 X66.070 Y104.329 E0.01683
G1 X69.171 Y107.430 E0.13798
G1 X68.636 Y107.430 E0.01683
G1 X66.070 Y104.864 E0.11417
G1 X66.070 Y105.399 E0.01683
G1 X68.101 Y107.430 E0.09036
G1 X67.566 Y107.430 E0.01683
G1 X66.070 Y105.934 E0.06655
G1 X66.070 Y106.469 E0.01683
G1 X67.031 Y107.430 E0.04274
G1 X66.495 Y107.430 E0.01683
G1 X65.900 Y106.835 E0.02649
M204 S1250
; stop printing object GlassHolder v1.stl id:0 copy 0
M106 S84.15
;LAYER_CHANGE
;Z:0.35
;HEIGHT:0.15
;BEFORE_LAYER_CHANGE
G92 E0.0
;0.35


G1 Z0.350 F9000.000
;AFTER_LAYER_CHANGE
;0.35
M104 S210 ; set temperature
G1 E-3.20000 F4200.000
G1 Z0.550 F9000.000
G1 X62.759 Y109.293
G1 Z0.350
G1 E3.20000 F2400.000
;TYPE:Skirt
;WIDTH:0.42
G1 X62.623 Y108.532 E0.01871
G1 X62.623 Y71.477 E0.89616
G1 X62.688 Y70.949 E0.01287
G1 X62.867 Y70.452 E0.01278
G1 X63.151 Y70.006 E0.01278
G1 X63.529 Y69.632 E0.01287
G1 X64.211 Y69.258 E0.01880
G1 X64.976 Y69.123 E0.01880
G1 X115.004 Y69.123 E1.20992
G1 X115.892 Y69.297 E0.02188
G1 X116.653 Y69.792 E0.02197
G1 X117.172 Y70.534 E0.02188
G1 X117.376 Y71.415 E0.02188
G1 X117.376 Y108.557 E0.89827
G1 X117.306 Y109.077 E0.01269
G1 X117.125 Y109.565 E0.01260
G1 X116.842 Y110.002 E0.01260
G1 X116.471 Y110.368 E0.01260
G1 X115.789 Y110.742 E0.01880
G1 X115.024 Y110.877 E0.01880
G1 X64.981 Y110.877 E1.21028
G1 X64.453 Y110.813 E0.01287
G1 X63.955 Y110.635 E0.01278
G1 X63.506 Y110.349 E0.01287
G1 X63.132 Y109.971 E0.01287
G1 X62.788 Y109.346 E0.01726
; printing object GlassHolder v1.stl id:0 copy 0
G1 E-2.24000 F4200.000
;WIPE_START
G1 F7200.000
G1 X62.623 Y108.532 E-0.46031
G1 X62.623 Y107.716 E-0.45169
;WIPE_END
G1 E-0.04800 F4200.000
G1 Z0.550 F9000.000
G1 X65.643 Y107.857
G1 Z0.350
G1 E3.20000 F2400.000
M204 S800
;TYPE:Perimeter
;WIDTH:0.45
G1 X65.643 Y72.143 E0.93057
G1 X114.357 Y72.143 E1.26929
G1 X114.357 Y107.857 E0.93057
G1 X65.703 Y107.857 E1.26773
M204 S1250
M73 P5 R89
G1 X65.225 Y108.275 F9000.000
M204 S800
;TYPE:External perimeter
G1 F1800.000
G1 X65.225 Y71.725 E0.95234
G1 X114.775 Y71.725 E1.29106
G1 X114.775 Y108.275 E0.95234
M73 P5 R88
G1 X65.285 Y108.275 E1.28950
M204 S1250
G1 X65.348 Y107.894 F9000.000
G1 E-2.24000 F4200.000
;WIPE_START
G1 F7200.000
G1 X65.282 Y106.629 E-0.91200
;WIPE_END
G1 E-0.04800 F4200.000
G1 Z0.550 F9000.000
G1 X113.386 Y107.732
G1 Z0.350
G1 E3.20000 F2400.000
M204 S1000
;TYPE:Solid infill
;WIDTH:0.450533
G1 F4800.000
G1 X114.044 Y107.074 E0.02427
G1 X114.044 Y106.483 E0.01543
G1 X112.983 Y107.544 E0.03916
G1 X112.391 Y107.544 E0.01543
G1 X114.044 Y105.891 E0.06099
G1 X114.044 Y105.299 E0.01543
G1 X111.799 Y107.544 E0.08281
G1 X111.208 Y107.544 E0.01543
G1 X114.044 Y104.708 E0.10464
G1 X114.044 Y104.116 E0.01543
G1 X110.616 Y107.544 E0.12647
G1 X110.024 Y107.544 E0.01543
G1 X114.044 Y103.524 E0.14830
G1 X114.044 Y102.933 E0.01543
G1 X109.433 Y107.544 E0.17013
G1 X108.841 Y107.544 E0.01543
G1 X114.044 Y102.341 E0.19196
G1 X114.044 Y101.749 E0.01543
G1 X108.249 Y107.544 E0.21378
G1 X107.658 Y107.544 E0.01543
G1 X114.044 Y101.158 E0.23561
G1 X114.044 Y100.566 E0.01543
G1 X107.066 Y107.544 E0.25744
G1 X106.475 Y107.544 E0.01543
G1 X114.044 Y99.975 E0.27927
G1 X114.044 Y99.383 E0.01543
G1 X105.883 Y107.544 E0.30110
G1 X105.291 Y107.544 E0.01543
G1 X114.044 Y98.791 E0.32293
G1 X114.044 Y98.200 E0.01543
G1 X104.700 Y107.544 E0.34475
G1 X104.108 Y107.544 E0.01543
G1 X114.044 Y97.608 E0.36658
G1 X114.044 Y97.016 E0.01543
G1 X103.516 Y107.544 E0.38841
G1 X102.925 Y107.544 E0.01543
G1 X114.044 Y96.425 E0.41024
G1 X114.044 Y95.833 E0.01543
G1 X102.333 Y107.544 E0.43207
G1 X101.742 Y107.544 E0.01543
G1 X114.044 Y95.242 E0.45390
G1 X114.044 Y94.650 E0.01543
G1 X101.150 Y107.544 E0.47572
G1 X100.558 Y107.544 E0.01543
G1 X114.044 Y94.058 E0.49755
G1 X114.044 Y93.467 E0.01543
G1 X99.967 Y107.544 E0.51938
G1 X99.375 Y107.544 E0.01543
G1 X114.044 Y92.875 E0.54121
G1 X114.044 Y92.283 E0.01543
G1 X98.783 Y107.544 E0.56304
G1 X98.192 Y107.544 E0.01543
G1 X114.044 Y91.692 E0.58487
G1 X114.044 Y91.100 E0.01543
G1 X97.600 Y107.544 E0.60669
G1 X97.009 Y107.544 E0.01543
G1 X114.044 Y90.509 E0.62852
G1 X114.044 Y89.917 E0.01543
G1 X96.417 Y107.544 E0.65035
G1 X95.825 Y107.544 E0.01543
