; generated by PrusaSlicer 2.2.0+win64 on 2022-01-27 at 21:48:30 UTC


;
;

;
;
; 

; external perimeters extrusion width = 0.45mm
; perimeters extrusion width = 0.45mm
; infill extrusion width = 0.45mm
; solid infill extrusion width = 0.45mm
; top infill extrusion width = 0.40mm
; first layer extrusion width = 0.42mm

M73 P0 R101
M201 X1250 Y1250 Z400 E5000 ; sets maximum accelerations, mm/sec^2
M203 X180 Y180 Z12 E80 ; sets maximum feedrates, mm/sec
M204 P1250 R1250 T1250 ; sets acceleration (P, T) and retract acceleration (R), mm/sec^2
M205 X8.00 Y8.00 Z2.00 E10.00 ; sets the jerk limits, mm/sec
M205 S0 T0 ; sets the minimum extruding and travel feed rate, mm/sec
M107
G90 ; use absolute coordinates
M83 ; extruder relative mode
M104 S170 ; set extruder temp for bed leveling
M140 S85 ; set bed temp
M109 R170 ; wait for bed leveling temp
M190 S85 ; wait for bed temp
G28 ; home all without mesh bed level
G29 ; mesh bed leveling 
M104 S240 ; set extruder temp
G92 E0.0
G1 Y-2.0 X179 F2400
G1 Z3 F720
M109 S240 ; wait for extruder temp

; intro line
G1 X170 F1000
G1 Z0.2 F720
G1 X110.0 E8.0 F900
M73 P0 R101
G1 X40.0 E10.0 F700
G92 E0.0

M221 S95 ; set flow
G21 ; set units to millimeters
G90 ; use absolute coordinates
M83 ; use relative distances for extrusion
M900 K0.2 ; Filament gcode
;BEFORE_LAYER_CHANGE
G92 E0.0
;0.2


G1 Z0.200 F9000.000
;AFTER_LAYER_CHANGE
;0.2
G1 E-3.20000 F2400.00000
G1 Z0.400 F9000.000
G1 X115.938 Y117.184
G1 Z0.200
G1 E3.20000 F1500.00000
M204 S800
G1 F1200.000
G1 X115.005 Y117.377 E0.02989
G1 X64.970 Y117.377 E1.56882
G1 X64.101 Y117.201 E0.02778
G1 X63.358 Y116.719 E0.02778
G1 X62.825 Y115.959 E0.02907
G1 X62.624 Y115.054 E0.02907
G1 X62.784 Y114.141 E0.02907
G1 X63.281 Y113.358 E0.02907
G1 X113.335 Y63.303 E2.21952
G1 X114.104 Y62.798 E0.02884
G1 X115.003 Y62.623 E0.02872
G1 X115.895 Y62.798 E0.02849
G1 X116.656 Y63.294 E0.02849
G1 X117.175 Y64.040 E0.02849
G1 X117.376 Y64.926 E0.02849
G1 X117.377 Y115.030 E1.57099
G1 X117.201 Y115.899 E0.02778
G1 X116.719 Y116.642 E0.02778
G1 X115.988 Y117.150 E0.02789
M204 S1250
; printing object skjerm_feste v1.stl id:0 copy 0
G1 E-2.24000 F2400.00000
G1 F7200.000
G1 X115.005 Y117.377 E-0.31946
G1 X113.134 Y117.377 E-0.59254
G1 E-0.04800 F2400.00000
G1 Z0.400 F9000.000
G1 X114.213 Y114.213
G1 Z0.200
G1 E3.20000 F1500.00000
M204 S800
G1 F1200.000
G1 X67.992 Y114.213 E1.44921
G1 X66.953 Y114.240 E0.03259
G1 X66.794 Y114.262 E0.00505
G1 X67.207 Y113.899 E0.01724
G1 X70.326 Y110.787 E0.13813
G1 X110.787 Y110.787 E1.26864
G1 X110.787 Y70.326 E1.26864
G1 X113.899 Y67.207 E0.13813
G1 X114.262 Y66.794 E0.01724
G1 X114.240 Y66.953 E0.00505
G1 X114.213 Y67.992 E0.03259
G1 X114.213 Y114.153 E1.44733
M204 S1250
G1 E-2.24000 F2400.00000
G1 F7200.000
G1 X111.333 Y114.157 E-0.91200
G1 E-0.04800 F2400.00000
G1 Z0.400 F9000.000
G1 X110.410 Y110.410
G1 Z0.200
G1 E3.20000 F1500.00000
M204 S800
G1 F1200.000
G1 X110.410 Y70.170 E1.26171
G1 X113.624 Y66.948 E0.14268
G1 X113.950 Y66.582 E0.01538
G1 X114.495 Y65.802 E0.02982
G1 X114.789 Y65.508 E0.01305
G1 X114.790 Y65.978 E0.01473
G1 X114.686 Y66.464 E0.01559
G1 X114.617 Y66.983 E0.01642
G1 X114.590 Y67.997 E0.03180
G1 X114.590 Y114.590 E1.46088
G1 X67.997 Y114.590 E1.46088
G1 X66.983 Y114.617 E0.03180
G1 X66.464 Y114.686 E0.01642
G1 X65.978 Y114.790 E0.01559
G1 X65.508 Y114.789 E0.01473
G1 X65.802 Y114.495 E0.01305
G1 X66.582 Y113.950 E0.02982
G1 X66.948 Y113.624 E0.01538
G1 X70.170 Y110.410 E0.14268
G1 X110.350 Y110.410 E1.25983
M204 S1250
G1 X110.810 Y110.400 F9000.000
G1 E-2.24000 F2400.00000
G1 F7200.000
G1 X110.354 Y107.530 E-0.91200
G1 E-0.04800 F2400.00000
G1 Z0.400 F9000.000
G1 X67.860 Y114.103
G1 Z0.200
G1 E3.20000 F1500.00000
M204 S800
G1 F1200.000
G1 X67.631 Y113.875 E0.01016
G1 X67.899 Y113.608 E0.01188
G1 X68.221 Y113.930 E0.01433
G1 X68.756 Y113.930 E0.01680
G1 X68.166 Y113.341 E0.02620
G1 X68.434 Y113.074 E0.01188
G1 X69.290 Y113.930 E0.03807
G1 X69.825 Y113.930 E0.01680
G1 X68.701 Y112.807 E0.04994
G1 X68.969 Y112.540 E0.01188
G1 X70.359 Y113.930 E0.06181
G1 X70.894 Y113.930 E0.01680
G1 X69.237 Y112.273 E0.07368
G1 X69.504 Y112.006 E0.01188
G1 X71.429 Y113.930 E0.08554
G1 X71.963 Y113.930 E0.01680
G1 X69.772 Y111.739 E0.09741
G1 X70.040 Y111.472 E0.01188
G1 X72.498 Y113.930 E0.10928
G1 X73.033 Y113.930 E0.01680
G1 X70.307 Y111.205 E0.12115
G1 X70.443 Y111.070 E0.00601
G1 X70.707 Y111.070 E0.00830
G1 X73.567 Y113.930 E0.12716
G1 X74.102 Y113.930 E0.01680
G1 X71.241 Y111.070 E0.12716
G1 X71.776 Y111.070 E0.01680
G1 X74.636 Y113.930 E0.12716
G1 X75.171 Y113.930 E0.01680
G1 X72.311 Y111.070 E0.12716
G1 X72.845 Y111.070 E0.01680
G1 X75.706 Y113.930 E0.12716
G1 X76.240 Y113.930 E0.01680
G1 X73.380 Y111.070 E0.12716
G1 X73.914 Y111.070 E0.01680
G1 X76.775 Y113.930 E0.12716
G1 X77.309 Y113.930 E0.01680
G1 X74.449 Y111.070 E0.12716
G1 X74.984 Y111.070 E0.01680
G1 X77.844 Y113.930 E0.12716
G1 X78.379 Y113.930 E0.01680
G1 X75.518 Y111.070 E0.12716
G1 X76.053 Y111.070 E0.01680
G1 X78.913 Y113.930 E0.12715
G1 X79.448 Y113.930 E0.01680
G1 X76.587 Y111.070 E0.12715
G1 X77.122 Y111.070 E0.01680
G1 X79.982 Y113.930 E0.12715
G1 X80.517 Y113.930 E0.01680
G1 X77.657 Y111.070 E0.12715
G1 X78.191 Y111.070 E0.01680
G1 X81.052 Y113.930 E0.12715
G1 X81.586 Y113.930 E0.01680
G1 X78.726 Y111.070 E0.12715
G1 X79.260 Y111.070 E0.01680
G1 X82.121 Y113.930 E0.12715
G1 X82.656 Y113.930 E0.01680
G1 X79.795 Y111.070 E0.12715
G1 X80.330 Y111.070 E0.01680
G1 X83.190 Y113.930 E0.12715
G1 X83.725 Y113.930 E0.01680
G1 X80.864 Y111.070 E0.12715
G1 X81.399 Y111.070 E0.01680
G1 X84.259 Y113.930 E0.12715
G1 X84.794 Y113.930 E0.01680
G1 X81.934 Y111.070 E0.12715
G1 X82.468 Y111.070 E0.01680
G1 X85.329 Y113.930 E0.12715
G1 X85.863 Y113.930 E0.01680
G1 X83.003 Y111.070 E0.12715
G1 X83.537 Y111.070 E0.01680
G1 X86.398 Y113.930 E0.12715
G1 X86.932 Y113.930 E0.01680
G1 X84.072 Y111.070 E0.12715
G1 X84.607 Y111.070 E0.01680
G1 X87.467 Y113.930 E0.12715
G1 X88.002 Y113.930 E0.01680
G1 X85.141 Y111.070 E0.12715
G1 X85.676 Y111.070 E0.01680
G1 X88.536 Y113.930 E0.12715
G1 X89.071 Y113.930 E0.01680
G1 X86.210 Y111.070 E0.12715
G1 X86.745 Y111.070 E0.01680
G1 X89.605 Y113.930 E0.12715
G1 X90.140 Y113.930 E0.01680
G1 X87.280 Y111.070 E0.12715
G1 X87.814 Y111.070 E0.01680
G1 X90.675 Y113.930 E0.12715
G1 X91.209 Y113.930 E0.01680
G1 X88.349 Y111.070 E0.12715
G1 X88.884 Y111.070 E0.01680
G1 X91.744 Y113.930 E0.12715
G1 X92.278 Y113.930 E0.01680
G1 X89.418 Y111.070 E0.12715
G1 X89.953 Y111.070 E0.01680
G1 X92.813 Y113.930 E0.12715
G1 X93.348 Y113.930 E0.01680
G1 X90.487 Y111.070 E0.12715
G1 X91.022 Y111.070 E0.01680
G1 X93.882 Y113.930 E0.12715
G1 X94.417 Y113.930 E0.01680
G1 X91.557 Y111.070 E0.12715
G1 X92.091 Y111.070 E0.01680
G1 X94.952 Y113.930 E0.12715
G1 X95.486 Y113.930 E0.01680
G1 X92.626 Y111.070 E0.12715
G1 X93.160 Y111.070 E0.01680
G1 X96.021 Y113.930 E0.12715
G1 X96.555 Y113.930 E0.01680
G1 X93.695 Y111.070 E0.12715
G1 X94.230 Y111.070 E0.01680
G1 X97.090 Y113.930 E0.12715
G1 X97.625 Y113.930 E0.01680
G1 X94.764 Y111.070 E0.12715
G1 X95.299 Y111.070 E0.01680
G1 X98.159 Y113.930 E0.12715
G1 X98.694 Y113.930 E0.01680
G1 X95.833 Y111.070 E0.12715
G1 X96.368 Y111.070 E0.01680
G1 X99.228 Y113.930 E0.12715
G1 X99.763 Y113.930 E0.01680
G1 X96.903 Y111.070 E0.12715
G1 X97.437 Y111.070 E0.01680
G1 X100.298 Y113.930 E0.12715
G1 X100.832 Y113.930 E0.01680
G1 X97.972 Y111.070 E0.12715
G1 X98.507 Y111.070 E0.01680
G1 X101.367 Y113.930 E0.12715
G1 X101.901 Y113.930 E0.01680
G1 X99.041 Y111.070 E0.12715
G1 X99.576 Y111.070 E0.01680
G1 X102.436 Y113.930 E0.12715
G1 X102.971 Y113.930 E0.01680
G1 X100.110 Y111.070 E0.12715
G1 X100.645 Y111.070 E0.01680
G1 X103.505 Y113.930 E0.12715
G1 X104.040 Y113.930 E0.01680
G1 X101.180 Y111.070 E0.12715
G1 X101.714 Y111.070 E0.01680
G1 X104.575 Y113.930 E0.12715
G1 X105.109 Y113.930 E0.01680
G1 X102.249 Y111.070 E0.12715
G1 X102.783 Y111.070 E0.01680
G1 X105.644 Y113.930 E0.12715
G1 X106.178 Y113.930 E0.01680
G1 X103.318 Y111.070 E0.12715
G1 X103.853 Y111.070 E0.01680
G1 X106.713 Y113.930 E0.12715
G1 X107.248 Y113.930 E0.01680
G1 X104.387 Y111.070 E0.12715
G1 X104.922 Y111.070 E0.01680
G1 X107.782 Y113.930 E0.12715
G1 X108.317 Y113.930 E0.01680
G1 X105.456 Y111.070 E0.12715
G1 X105.991 Y111.070 E0.01680
G1 X108.851 Y113.930 E0.12715
G1 X109.386 Y113.930 E0.01680
G1 X106.526 Y111.070 E0.12715
G1 X107.060 Y111.070 E0.01680
G1 X109.921 Y113.930 E0.12715
G1 X110.455 Y113.930 E0.01680
G1 X107.595 Y111.070 E0.12715
G1 X108.130 Y111.070 E0.01680
G1 X110.990 Y113.930 E0.12715
G1 X111.524 Y113.930 E0.01680
G1 X108.664 Y111.070 E0.12715
G1 X109.199 Y111.070 E0.01680
G1 X112.059 Y113.930 E0.12715
G1 X112.594 Y113.930 E0.01680
G1 X109.733 Y111.070 E0.12715
G1 X110.268 Y111.070 E0.01680
G1 X113.128 Y113.930 E0.12715
G1 X113.663 Y113.930 E0.01680
G1 X110.803 Y111.070 E0.12715
G1 X111.070 Y111.070 E0.00840
G1 X111.070 Y110.803 E0.00840
G1 X113.930 Y113.663 E0.12715
G1 X113.930 Y113.128 E0.01680
G1 X111.070 Y110.268 E0.12715
G1 X111.070 Y109.733 E0.01680
G1 X113.930 Y112.594 E0.12715
G1 X113.930 Y112.059 E0.01680
G1 X111.070 Y109.199 E0.12715
G1 X111.070 Y108.664 E0.01680
G1 X113.930 Y111.524 E0.12715
G1 X113.930 Y110.990 E0.01680
G1 X111.070 Y108.129 E0.12715
G1 X111.070 Y107.595 E0.01680
G1 X113.930 Y110.455 E0.12715
G1 X113.930 Y109.921 E0.01680
G1 X111.070 Y107.060 E0.12715
G1 X111.070 Y106.526 E0.01680
G1 X113.930 Y109.386 E0.12715
G1 X113.930 Y108.851 E0.01680
G1 X111.070 Y105.991 E0.12715
G1 X111.070 Y105.456 E0.01680
G1 X113.930 Y108.317 E0.12715
G1 X113.930 Y107.782 E0.01680
G1 X111.070 Y104.922 E0.12715
M73 P1 R100
G1 X111.070 Y104.387 E0.01680
G1 X113.930 Y107.247 E0.12715
G1 X113.930 Y106.713 E0.01680
G1 X111.070 Y103.853 E0.12715
G1 X111.070 Y103.318 E0.01680
G1 X113.930 Y106.178 E0.12715
G1 X113.930 Y105.644 E0.01680
G1 X111.070 Y102.783 E0.12715
G1 X111.070 Y102.249 E0.01680
G1 X113.930 Y105.109 E0.12715
G1 X113.930 Y104.574 E0.01680
G1 X111.070 Y101.714 E0.12715
G1 X111.070 Y101.180 E0.01680
G1 X113.930 Y104.040 E0.12715
G1 X113.930 Y103.505 E0.01680
G1 X111.070 Y100.645 E0.12715
G1 X111.070 Y100.110 E0.01680
G1 X113.930 Y102.971 E0.12715
G1 X113.930 Y102.436 E0.01680
G1 X111.070 Y99.576 E0.12715
G1 X111.070 Y99.041 E0.01680
G1 X113.930 Y101.901 E0.12715
G1 X113.930 Y101.367 E0.01680
G1 X111.070 Y98.506 E0.12715
G1 X111.070 Y97.972 E0.01680
G1 X113.930 Y100.832 E0.12715
G1 X113.930 Y100.298 E0.01680
G1 X111.070 Y97.437 E0.12715
G1 X111.070 Y96.903 E0.01680
G1 X113.930 Y99.763 E0.12715
G1 X113.930 Y99.228 E0.01680
G1 X111.070 Y96.368 E0.12715
G1 X111.070 Y95.833 E0.01680
G1 X113.930 Y98.694 E0.12715
G1 X113.930 Y98.159 E0.01680
G1 X111.070 Y95.299 E0.12715
G1 X111.070 Y94.764 E0.01680
G1 X113.930 Y97.624 E0.12715
G1 X113.930 Y97.090 E0.01680
G1 X111.070 Y94.230 E0.12715
G1 X111.070 Y93.695 E0.01680
G1 X113.930 Y96.555 E0.12715
G1 X113.930 Y96.021 E0.01680
G1 X111.070 Y93.160 E0.12715
G1 X111.070 Y92.626 E0.01680
G1 X113.930 Y95.486 E0.12715
G1 X113.930 Y94.951 E0.01680
G1 X111.070 Y92.091 E0.12715
G1 X111.070 Y91.556 E0.01680
G1 X113.930 Y94.417 E0.12715
G1 X113.930 Y93.882 E0.01680
G1 X111.070 Y91.022 E0.12715
G1 X111.070 Y90.487 E0.01680
G1 X113.930 Y93.348 E0.12715
G1 X113.930 Y92.813 E0.01680
G1 X111.070 Y89.953 E0.12715
G1 X111.070 Y89.418 E0.01680
G1 X113.930 Y92.278 E0.12715
G1 X113.930 Y91.744 E0.01680
G1 X111.070 Y88.883 E0.12715
G1 X111.070 Y88.349 E0.01680
G1 X113.930 Y91.209 E0.12715
G1 X113.930 Y90.675 E0.01680
G1 X111.070 Y87.814 E0.12715
G1 X111.070 Y87.280 E0.01680
G1 X113.930 Y90.140 E0.12715
G1 X113.930 Y89.605 E0.01680
G1 X111.070 Y86.745 E0.12715
G1 X111.070 Y86.210 E0.01680
G1 X113.930 Y89.071 E0.12715
G1 X113.930 Y88.536 E0.01680
G1 X111.070 Y85.676 E0.12715
G1 X111.070 Y85.141 E0.01680
G1 X113.930 Y88.002 E0.12715
G1 X113.930 Y87.467 E0.01680
G1 X111.070 Y84.607 E0.12715
G1 X111.070 Y84.072 E0.01680
G1 X113.930 Y86.932 E0.12715
G1 X113.930 Y86.398 E0.01680
G1 X111.070 Y83.537 E0.12715
G1 X111.070 Y83.003 E0.01680
G1 X113.930 Y85.863 E0.12715
G1 X113.930 Y85.328 E0.01680
G1 X111.070 Y82.468 E0.12715
G1 X111.070 Y81.933 E0.01680
G1 X113.930 Y84.794 E0.12715
G1 X113.930 Y84.259 E0.01680
G1 X111.070 Y81.399 E0.12715
G1 X111.070 Y80.864 E0.01680
G1 X113.930 Y83.725 E0.12715
G1 X113.930 Y83.190 E0.01680
G1 X111.070 Y80.330 E0.12715
G1 X111.070 Y79.795 E0.01680
G1 X113.930 Y82.655 E0.12715
G1 X113.930 Y82.121 E0.01680
G1 X111.070 Y79.260 E0.12715
G1 X111.070 Y78.726 E0.01680
G1 X113.930 Y81.586 E0.12715
G1 X113.930 Y81.052 E0.01680
G1 X111.070 Y78.191 E0.12715
G1 X111.070 Y77.657 E0.01680
G1 X113.930 Y80.517 E0.12715
G1 X113.930 Y79.982 E0.01680
G1 X111.070 Y77.122 E0.12715
G1 X111.070 Y76.587 E0.01680
G1 X113.930 Y79.448 E0.12715
G1 X113.930 Y78.913 E0.01680
G1 X111.070 Y76.053 E0.12716
G1 X111.070 Y75.518 E0.01680
G1 X113.930 Y78.379 E0.12716
G1 X113.930 Y77.844 E0.01680
G1 X111.070 Y74.983 E0.12716
G1 X111.070 Y74.449 E0.01680
G1 X113.930 Y77.309 E0.12716
G1 X113.930 Y76.775 E0.01680
G1 X111.070 Y73.914 E0.12716
G1 X111.070 Y73.380 E0.01680
G1 X113.930 Y76.240 E0.12716
G1 X113.930 Y75.705 E0.01680
G1 X111.070 Y72.845 E0.12716
G1 X111.070 Y72.310 E0.01680
G1 X113.930 Y75.171 E0.12716
G1 X113.930 Y74.636 E0.01680
G1 X111.070 Y71.776 E0.12716
G1 X111.070 Y71.241 E0.01680
G1 X113.930 Y74.102 E0.12716
G1 X113.930 Y73.567 E0.01680
G1 X111.070 Y70.707 E0.12716
G1 X111.070 Y70.443 E0.00830
G1 X111.205 Y70.307 E0.00601
G1 X113.930 Y73.032 E0.12115
G1 X113.930 Y72.498 E0.01680
G1 X111.472 Y70.040 E0.10928
G1 X111.739 Y69.772 E0.01188
G1 X113.930 Y71.963 E0.09741
G1 X113.930 Y71.429 E0.01680
G1 X112.006 Y69.504 E0.08554
G1 X112.273 Y69.237 E0.01188
G1 X113.930 Y70.894 E0.07367
G1 X113.930 Y70.359 E0.01680
G1 X112.540 Y68.969 E0.06180
G1 X112.807 Y68.701 E0.01188
G1 X113.930 Y69.825 E0.04994
G1 X113.930 Y69.290 E0.01680
G1 X113.074 Y68.434 E0.03807
G1 X113.341 Y68.166 E0.01188
G1 X113.930 Y68.756 E0.02620
G1 X113.930 Y68.221 E0.01680
G1 X113.608 Y67.899 E0.01433
G1 X113.875 Y67.631 E0.01188
G1 X114.103 Y67.859 E0.01016
M204 S1250
G1 E-2.24000 F2400.00000
G1 F7200.000
G1 X113.875 Y67.631 E-0.10231
G1 X113.608 Y67.899 E-0.11971
G1 X113.930 Y68.221 E-0.14436
G1 X113.930 Y68.756 E-0.16929
G1 X113.341 Y68.166 E-0.26393
G1 X113.090 Y68.417 E-0.11240
G1 E-0.04800 F2400.00000
G1 Z0.400 F9000.000
G1 X114.326 Y66.617
G1 Z0.200
G1 E3.20000 F1500.00000
M204 S800
G1 F1200.000
G1 X114.548 Y66.078 E0.00905
M204 S1250
G1 E-2.24000 F2400.00000
G1 F7200.000
G1 X114.326 Y66.617 E-0.18431
G1 E-0.77569 F2400.00000
G1 Z0.400 F9000.000
G1 X66.617 Y114.326
G1 Z0.200
G1 E3.20000 F1500.00000
M204 S800
G1 F1200.000
G1 X66.078 Y114.548 E0.00905
M204 S1250
; stop printing object skjerm_feste v1.stl id:0 copy 0
;BEFORE_LAYER_CHANGE
G92 E0.0
;0.35


G1 Z0.350 F9000.000
;AFTER_LAYER_CHANGE
;0.35
M104 S250 ; set temperature
M140 S90 ; set bed temperature
G1 E-3.20000 F2400.00000
G1 Z0.550 F9000.000
G1 X62.784 Y114.141
G1 Z0.350
G1 E3.20000 F1500.00000
G1 F2400.000
G1 X63.281 Y113.358 E0.02242
G1 X113.335 Y63.303 E1.71201
G1 X114.104 Y62.798 E0.02224
G1 X115.003 Y62.623 E0.02215
G1 X115.895 Y62.798 E0.02197
G1 X116.656 Y63.294 E0.02197
G1 X117.175 Y64.040 E0.02197
G1 X117.376 Y64.926 E0.02197
G1 X117.377 Y115.030 E1.21177
G1 X117.201 Y115.899 E0.02143
G1 X116.719 Y116.642 E0.02143
G1 X115.938 Y117.184 E0.02297
G1 X115.005 Y117.377 E0.02306
G1 X64.970 Y117.377 E1.21010
G1 X64.101 Y117.201 E0.02143
G1 X63.358 Y116.719 E0.02143
G1 X62.825 Y115.959 E0.02242
G1 X62.624 Y115.054 E0.02242
G1 X62.773 Y114.200 E0.02097
; printing object skjerm_feste v1.stl id:0 copy 0
G1 E-2.24000
G1 F7200.000
G1 X63.281 Y113.358 E-0.31126
G1 X64.622 Y112.017 E-0.60074
G1 E-0.04800 F2400.00000
G1 Z0.550 F9000.000
G1 X66.552 Y114.357
G1 Z0.350
G1 E3.20000 F1500.00000
M204 S800
G1 F2400.000
G1 X70.266 Y110.643 E0.13687
G1 X110.643 Y110.643 E1.05204
G1 X110.643 Y70.266 E1.05204
G1 X114.357 Y66.552 E0.13687
G1 X114.357 Y114.357 E1.24560
G1 X66.612 Y114.357 E1.24404
M204 S1250
G1 E-2.24000
G1 F7200.000
G1 X68.632 Y112.304 E-0.91200
G1 E-0.04800 F2400.00000
