; generated by PrusaSlicer 2.3.0+win64 on 2022-01-28 at 12:50:08 UTC


;
;

;
;
; 

; external perimeters extrusion width = 0.45mm
; perimeters extrusion width = 0.45mm
; infill extrusion width = 0.45mm
; solid infill extrusion width = 0.45mm
; top infill extrusion width = 0.40mm
; first layer extrusion width = 0.42mm

M73 P0 R172
M201 X1250 Y1250 Z400 E5000 ; sets maximum accelerations, mm/sec^2
M203 X180 Y180 Z12 E80 ; sets maximum feedrates, mm/sec
M204 P1250 R1250 T1250 ; sets acceleration (P, T) and retract acceleration (R), mm/sec^2
M205 X8.00 Y8.00 Z2.00 E10.00 ; sets the jerk limits, mm/sec
M205 S0 T0 ; sets the minimum extruding and travel feed rate, mm/sec
M107
;TYPE:Custom
G90 ; use absolute coordinates
M83 ; extruder relative mode
M104 S170 ; set extruder temp for bed leveling
M140 S85 ; set bed temp
M109 R170 ; wait for bed leveling temp
M190 S85 ; wait for bed temp
G28 ; home all without mesh bed level
G29 ; mesh bed leveling 
M104 S230 ; set extruder temp
G92 E0.0
G1 Y-2.0 X179 F2400
G1 Z3 F720
M109 S230 ; wait for extruder temp

; intro line
G1 X170 F1000
G1 Z0.2 F720
G1 X110.0 E8.0 F900
G1 X40.0 E10.0 F700
G92 E0.0

M221 S95 ; set flow
G21 ; set units to millimeters
G90 ; use absolute coordinates
M83 ; use relative distances for extrusion
M900 K0.2 ; Filament gcode
;LAYER_CHANGE
;Z:0.2
;HEIGHT:0.2
;BEFORE_LAYER_CHANGE
G92 E0.0
;0.2


M73 P0 R171
G1 Z0.200 F9000.000
;AFTER_LAYER_CHANGE
;0.2
G1 E-3.20000 F2400.000
G1 Z0.400 F9000.000
G1 X86.117 Y68.731
G1 Z0.200
G1 E3.20000 F1500.000
M204 S800
;TYPE:Skirt
;WIDTH:0.42
G1 F1200.000
G1 X86.606 Y68.316 E0.02012
G1 X87.189 Y68.047 E0.02012
G1 X87.822 Y67.943 E0.02012
G1 X137.888 Y67.841 E1.56978
G1 X138.744 Y68.002 E0.02731
G1 X139.488 Y68.463 E0.02743
G1 X156.014 Y83.909 E0.70927
G1 X156.412 Y84.413 E0.02012
G1 X156.661 Y85.004 E0.02012
G1 X156.743 Y85.618 E0.01941
G1 X156.743 Y135.630 E1.56810
G1 X156.679 Y136.170 E0.01704
G1 X156.496 Y136.677 E0.01692
G1 X156.134 Y137.212 E0.02024
G1 X155.641 Y137.629 E0.02024
G1 X155.051 Y137.899 E0.02036
G1 X154.413 Y137.999 E0.02024
G1 X104.355 Y137.999 E1.56954
G1 X103.819 Y137.935 E0.01692
G1 X103.311 Y137.752 E0.01692
G1 X102.752 Y137.367 E0.02130
G1 X86.344 Y122.038 E0.70402
G1 X85.935 Y121.520 E0.02071
G1 X85.684 Y120.909 E0.02071
G1 X85.609 Y120.328 E0.01835
G1 X85.508 Y70.317 E1.56808
G1 X85.571 Y69.777 E0.01704
G1 X85.755 Y69.265 E0.01704
G1 X86.083 Y68.781 E0.01836
M204 S1250
; printing object skjerm_feste v1.stl id:1 copy 0
G1 E-2.24000 F2400.000
;WIPE_START
G1 F7200.000
G1 X86.606 Y68.316 E-0.22159
G1 X87.189 Y68.047 E-0.20322
G1 X87.822 Y67.943 E-0.20322
G1 X88.719 Y67.941 E-0.28397
;WIPE_END
G1 E-0.04800 F2400.000
G1 Z0.400 F9000.000
G1 X150.153 Y131.409
G1 Z0.200
G1 E3.20000 F1500.000
M204 S800
;TYPE:Perimeter
G1 F1200.000
G1 X150.153 Y90.948 E1.26864
G1 X153.265 Y87.829 E0.13813
G1 X153.628 Y87.416 E0.01724
G1 X153.606 Y87.576 E0.00505
G1 X153.579 Y88.615 E0.03259
G1 X153.579 Y134.835 E1.44921
G1 X107.359 Y134.835 E1.44921
G1 X106.320 Y134.863 E0.03259
G1 X106.160 Y134.884 E0.00505
G1 X106.573 Y134.521 E0.01724
G1 X109.692 Y131.409 E0.13813
G1 X150.093 Y131.409 E1.26676
M204 S1250
G1 X149.776 Y131.032 F9000.000
M204 S800
;TYPE:External perimeter
G1 F1200.000
G1 X149.776 Y90.792 E1.26171
G1 X152.990 Y87.571 E0.14268
G1 X153.316 Y87.204 E0.01538
G1 X153.861 Y86.424 E0.02982
G1 X154.155 Y86.130 E0.01305
G1 X154.156 Y86.600 E0.01473
G1 X154.052 Y87.086 E0.01559
G1 X153.983 Y87.606 E0.01642
G1 X153.956 Y88.620 E0.03180
G1 X153.956 Y135.212 E1.46088
G1 X107.363 Y135.213 E1.46088
G1 X106.350 Y135.239 E0.03180
G1 X105.830 Y135.308 E0.01642
G1 X105.344 Y135.412 E0.01559
G1 X104.874 Y135.411 E0.01473
G1 X105.168 Y135.117 E0.01305
G1 X105.948 Y134.572 E0.02982
G1 X106.315 Y134.246 E0.01538
G1 X109.536 Y131.032 E0.14268
G1 X149.716 Y131.032 E1.25983
M204 S1250
G1 X150.176 Y131.022 F9000.000
G1 E-2.24000 F2400.000
;WIPE_START
G1 F7200.000
G1 X149.720 Y128.152 E-0.91200
;WIPE_END
G1 E-0.04800 F2400.000
G1 Z0.400 F9000.000
G1 X153.470 Y88.482
G1 Z0.200
G1 E3.20000 F1500.000
M204 S800
;TYPE:Solid infill
;WIDTH:0.420948
G1 F1200.000
G1 X153.241 Y88.253 E0.01016
G1 X152.974 Y88.521 E0.01188
G1 X153.297 Y88.843 E0.01433
G1 X153.297 Y89.378 E0.01680
G1 X152.707 Y88.789 E0.02620
G1 X152.440 Y89.056 E0.01188
G1 X153.297 Y89.912 E0.03807
G1 X153.297 Y90.447 E0.01680
G1 X152.173 Y89.324 E0.04994
G1 X151.906 Y89.591 E0.01188
G1 X153.297 Y90.982 E0.06180
G1 X153.297 Y91.516 E0.01680
G1 X151.639 Y89.859 E0.07367
G1 X151.372 Y90.127 E0.01188
G1 X153.297 Y92.051 E0.08554
G1 X153.297 Y92.586 E0.01680
G1 X151.105 Y90.394 E0.09741
G1 X150.838 Y90.662 E0.01188
G1 X153.297 Y93.120 E0.10928
G1 X153.297 Y93.655 E0.01680
G1 X150.571 Y90.929 E0.12115
G1 X150.436 Y91.065 E0.00601
G1 X150.436 Y91.329 E0.00830
G1 X153.297 Y94.189 E0.12716
G1 X153.297 Y94.724 E0.01680
G1 X150.436 Y91.864 E0.12716
G1 X150.436 Y92.398 E0.01680
G1 X153.297 Y95.259 E0.12716
G1 X153.297 Y95.793 E0.01680
G1 X150.436 Y92.933 E0.12716
G1 X150.436 Y93.467 E0.01680
G1 X153.297 Y96.328 E0.12716
G1 X153.297 Y96.862 E0.01680
G1 X150.436 Y94.002 E0.12716
G1 X150.436 Y94.537 E0.01680
G1 X153.297 Y97.397 E0.12716
G1 X153.297 Y97.932 E0.01680
G1 X150.436 Y95.071 E0.12716
G1 X150.436 Y95.606 E0.01680
G1 X153.297 Y98.466 E0.12716
G1 X153.297 Y99.001 E0.01680
G1 X150.436 Y96.140 E0.12716
G1 X150.436 Y96.675 E0.01680
G1 X153.297 Y99.535 E0.12716
G1 X153.297 Y100.070 E0.01680
G1 X150.436 Y97.210 E0.12715
G1 X150.436 Y97.744 E0.01680
G1 X153.297 Y100.605 E0.12715
G1 X153.296 Y101.139 E0.01680
G1 X150.436 Y98.279 E0.12715
G1 X150.436 Y98.813 E0.01680
G1 X153.296 Y101.674 E0.12715
G1 X153.296 Y102.208 E0.01680
G1 X150.436 Y99.348 E0.12715
G1 X150.436 Y99.883 E0.01680
G1 X153.296 Y102.743 E0.12715
G1 X153.296 Y103.278 E0.01680
G1 X150.436 Y100.417 E0.12715
G1 X150.436 Y100.952 E0.01680
G1 X153.296 Y103.812 E0.12715
G1 X153.296 Y104.347 E0.01680
G1 X150.436 Y101.487 E0.12715
G1 X150.436 Y102.021 E0.01680
G1 X153.296 Y104.882 E0.12715
G1 X153.296 Y105.416 E0.01680
G1 X150.436 Y102.556 E0.12715
G1 X150.436 Y103.090 E0.01680
G1 X153.296 Y105.951 E0.12715
G1 X153.296 Y106.485 E0.01680
G1 X150.436 Y103.625 E0.12715
G1 X150.436 Y104.160 E0.01680
G1 X153.296 Y107.020 E0.12715
G1 X153.296 Y107.555 E0.01680
G1 X150.436 Y104.694 E0.12715
G1 X150.436 Y105.229 E0.01680
G1 X153.296 Y108.089 E0.12715
G1 X153.296 Y108.624 E0.01680
G1 X150.436 Y105.763 E0.12715
G1 X150.436 Y106.298 E0.01680
G1 X153.296 Y109.158 E0.12715
G1 X153.296 Y109.693 E0.01680
G1 X150.436 Y106.833 E0.12715
G1 X150.436 Y107.367 E0.01680
G1 X153.296 Y110.228 E0.12715
G1 X153.296 Y110.762 E0.01680
G1 X150.436 Y107.902 E0.12715
G1 X150.436 Y108.436 E0.01680
G1 X153.296 Y111.297 E0.12715
G1 X153.296 Y111.831 E0.01680
G1 X150.436 Y108.971 E0.12715
G1 X150.436 Y109.506 E0.01680
G1 X153.296 Y112.366 E0.12715
G1 X153.296 Y112.901 E0.01680
G1 X150.436 Y110.040 E0.12715
G1 X150.436 Y110.575 E0.01680
G1 X153.296 Y113.435 E0.12715
G1 X153.296 Y113.970 E0.01680
G1 X150.436 Y111.110 E0.12715
G1 X150.436 Y111.644 E0.01680
G1 X153.296 Y114.505 E0.12715
G1 X153.296 Y115.039 E0.01680
G1 X150.436 Y112.179 E0.12715
G1 X150.436 Y112.713 E0.01680
G1 X153.296 Y115.574 E0.12715
G1 X153.296 Y116.108 E0.01680
G1 X150.436 Y113.248 E0.12715
G1 X150.436 Y113.783 E0.01680
G1 X153.296 Y116.643 E0.12715
G1 X153.296 Y117.178 E0.01680
G1 X150.436 Y114.317 E0.12715
G1 X150.436 Y114.852 E0.01680
G1 X153.296 Y117.712 E0.12715
G1 X153.296 Y118.247 E0.01680
G1 X150.436 Y115.386 E0.12715
G1 X150.436 Y115.921 E0.01680
G1 X153.296 Y118.781 E0.12715
G1 X153.296 Y119.316 E0.01680
G1 X150.436 Y116.456 E0.12715
G1 X150.436 Y116.990 E0.01680
G1 X153.296 Y119.851 E0.12715
G1 X153.296 Y120.385 E0.01680
G1 X150.436 Y117.525 E0.12715
G1 X150.436 Y118.060 E0.01680
G1 X153.296 Y120.920 E0.12715
G1 X153.296 Y121.454 E0.01680
G1 X150.436 Y118.594 E0.12715
G1 X150.436 Y119.129 E0.01680
G1 X153.296 Y121.989 E0.12715
G1 X153.296 Y122.524 E0.01680
G1 X150.436 Y119.663 E0.12715
G1 X150.436 Y120.198 E0.01680
G1 X153.296 Y123.058 E0.12715
G1 X153.296 Y123.593 E0.01680
G1 X150.436 Y120.733 E0.12715
G1 X150.436 Y121.267 E0.01680
G1 X153.296 Y124.127 E0.12715
G1 X153.296 Y124.662 E0.01680
G1 X150.436 Y121.802 E0.12715
G1 X150.436 Y122.336 E0.01680
G1 X153.296 Y125.197 E0.12715
G1 X153.296 Y125.731 E0.01680
G1 X150.436 Y122.871 E0.12715
G1 X150.436 Y123.406 E0.01680
G1 X153.296 Y126.266 E0.12715
G1 X153.296 Y126.801 E0.01680
G1 X150.436 Y123.940 E0.12715
G1 X150.436 Y124.475 E0.01680
G1 X153.296 Y127.335 E0.12715
G1 X153.296 Y127.870 E0.01680
G1 X150.436 Y125.009 E0.12715
G1 X150.436 Y125.544 E0.01680
G1 X153.296 Y128.404 E0.12715
G1 X153.296 Y128.939 E0.01680
G1 X150.436 Y126.079 E0.12715
G1 X150.436 Y126.613 E0.01680
G1 X153.296 Y129.474 E0.12715
G1 X153.296 Y130.008 E0.01680
G1 X150.436 Y127.148 E0.12715
G1 X150.436 Y127.683 E0.01680
G1 X153.296 Y130.543 E0.12715
G1 X153.296 Y131.077 E0.01680
G1 X150.436 Y128.217 E0.12715
G1 X150.436 Y128.752 E0.01680
G1 X153.296 Y131.612 E0.12715
G1 X153.296 Y132.147 E0.01680
G1 X150.436 Y129.286 E0.12715
G1 X150.436 Y129.821 E0.01680
G1 X153.296 Y132.681 E0.12715
G1 X153.296 Y133.216 E0.01680
G1 X150.436 Y130.356 E0.12715
G1 X150.436 Y130.890 E0.01680
G1 X153.296 Y133.750 E0.12715
G1 X153.296 Y134.285 E0.01680
G1 X150.436 Y131.425 E0.12715
G1 X150.436 Y131.692 E0.00840
G1 X150.169 Y131.692 E0.00840
G1 X153.029 Y134.552 E0.12715
G1 X152.494 Y134.552 E0.01680
G1 X149.634 Y131.692 E0.12715
G1 X149.100 Y131.692 E0.01680
G1 X151.960 Y134.552 E0.12715
G1 X151.425 Y134.552 E0.01680
G1 X148.565 Y131.692 E0.12715
G1 X148.030 Y131.692 E0.01680
G1 X150.891 Y134.552 E0.12715
G1 X150.356 Y134.552 E0.01680
G1 X147.496 Y131.692 E0.12715
G1 X146.961 Y131.692 E0.01680
G1 X149.821 Y134.552 E0.12715
G1 X149.287 Y134.552 E0.01680
G1 X146.427 Y131.692 E0.12715
G1 X145.892 Y131.692 E0.01680
G1 X148.752 Y134.552 E0.12715
G1 X148.218 Y134.552 E0.01680
G1 X145.357 Y131.692 E0.12715
G1 X144.823 Y131.692 E0.01680
G1 X147.683 Y134.552 E0.12715
G1 X147.148 Y134.552 E0.01680
G1 X144.288 Y131.692 E0.12715
G1 X143.753 Y131.692 E0.01680
G1 X146.614 Y134.552 E0.12715
G1 X146.079 Y134.552 E0.01680
G1 X143.219 Y131.692 E0.12715
G1 X142.684 Y131.692 E0.01680
G1 X145.545 Y134.552 E0.12715
G1 X145.010 Y134.552 E0.01680
G1 X142.150 Y131.692 E0.12715
G1 X141.615 Y131.692 E0.01680
G1 X144.475 Y134.552 E0.12715
G1 X143.941 Y134.552 E0.01680
G1 X141.080 Y131.692 E0.12715
G1 X140.546 Y131.692 E0.01680
G1 X143.406 Y134.552 E0.12715
G1 X142.871 Y134.552 E0.01680
G1 X140.011 Y131.692 E0.12715
G1 X139.477 Y131.692 E0.01680
G1 X142.337 Y134.552 E0.12715
M73 P0 R170
G1 X141.802 Y134.552 E0.01680
G1 X138.942 Y131.692 E0.12715
G1 X138.407 Y131.692 E0.01680
G1 X141.268 Y134.552 E0.12715
G1 X140.733 Y134.552 E0.01680
G1 X137.873 Y131.692 E0.12715
G1 X137.338 Y131.692 E0.01680
G1 X140.198 Y134.552 E0.12715
G1 X139.664 Y134.552 E0.01680
G1 X136.804 Y131.692 E0.12715
G1 X136.269 Y131.692 E0.01680
G1 X139.129 Y134.552 E0.12715
G1 X138.595 Y134.552 E0.01680
G1 X135.734 Y131.692 E0.12715
G1 X135.200 Y131.692 E0.01680
G1 X138.060 Y134.552 E0.12715
G1 X137.525 Y134.552 E0.01680
G1 X134.665 Y131.692 E0.12715
G1 X134.130 Y131.692 E0.01680
G1 X136.991 Y134.553 E0.12715
G1 X136.456 Y134.553 E0.01680
G1 X133.596 Y131.692 E0.12715
G1 X133.061 Y131.692 E0.01680
G1 X135.922 Y134.553 E0.12715
G1 X135.387 Y134.553 E0.01680
G1 X132.527 Y131.692 E0.12715
G1 X131.992 Y131.692 E0.01680
G1 X134.852 Y134.553 E0.12715
G1 X134.318 Y134.553 E0.01680
G1 X131.457 Y131.692 E0.12715
G1 X130.923 Y131.692 E0.01680
G1 X133.783 Y134.553 E0.12715
G1 X133.249 Y134.553 E0.01680
G1 X130.388 Y131.692 E0.12715
G1 X129.854 Y131.692 E0.01680
G1 X132.714 Y134.553 E0.12715
G1 X132.179 Y134.553 E0.01680
G1 X129.319 Y131.692 E0.12715
G1 X128.784 Y131.692 E0.01680
G1 X131.645 Y134.553 E0.12715
G1 X131.110 Y134.553 E0.01680
G1 X128.250 Y131.692 E0.12715
G1 X127.715 Y131.692 E0.01680
G1 X130.575 Y134.553 E0.12715
G1 X130.041 Y134.553 E0.01680
G1 X127.180 Y131.692 E0.12715
G1 X126.646 Y131.692 E0.01680
G1 X129.506 Y134.553 E0.12715
G1 X128.972 Y134.553 E0.01680
G1 X126.111 Y131.692 E0.12715
G1 X125.577 Y131.692 E0.01680
G1 X128.437 Y134.553 E0.12715
G1 X127.902 Y134.553 E0.01680
G1 X125.042 Y131.692 E0.12715
G1 X124.507 Y131.692 E0.01680
G1 X127.368 Y134.553 E0.12715
G1 X126.833 Y134.553 E0.01680
G1 X123.973 Y131.692 E0.12715
G1 X123.438 Y131.692 E0.01680
G1 X126.299 Y134.553 E0.12715
G1 X125.764 Y134.553 E0.01680
G1 X122.904 Y131.692 E0.12715
G1 X122.369 Y131.692 E0.01680
G1 X125.229 Y134.553 E0.12715
G1 X124.695 Y134.553 E0.01680
G1 X121.834 Y131.692 E0.12715
G1 X121.300 Y131.692 E0.01680
G1 X124.160 Y134.553 E0.12715
G1 X123.626 Y134.553 E0.01680
G1 X120.765 Y131.692 E0.12715
G1 X120.231 Y131.692 E0.01680
G1 X123.091 Y134.553 E0.12715
G1 X122.556 Y134.553 E0.01680
G1 X119.696 Y131.692 E0.12715
G1 X119.161 Y131.692 E0.01680
G1 X122.022 Y134.553 E0.12715
G1 X121.487 Y134.553 E0.01680
G1 X118.627 Y131.692 E0.12715
G1 X118.092 Y131.692 E0.01680
G1 X120.952 Y134.553 E0.12715
G1 X120.418 Y134.553 E0.01680
G1 X117.557 Y131.692 E0.12715
G1 X117.023 Y131.692 E0.01680
G1 X119.883 Y134.553 E0.12715
G1 X119.349 Y134.553 E0.01680
G1 X116.488 Y131.692 E0.12715
G1 X115.954 Y131.692 E0.01680
G1 X118.814 Y134.553 E0.12715
G1 X118.279 Y134.553 E0.01680
G1 X115.419 Y131.692 E0.12715
G1 X114.884 Y131.692 E0.01680
G1 X117.745 Y134.553 E0.12716
G1 X117.210 Y134.553 E0.01680
G1 X114.350 Y131.692 E0.12716
G1 X113.815 Y131.692 E0.01680
G1 X116.676 Y134.553 E0.12716
G1 X116.141 Y134.553 E0.01680
G1 X113.281 Y131.692 E0.12716
G1 X112.746 Y131.692 E0.01680
G1 X115.606 Y134.553 E0.12716
G1 X115.072 Y134.553 E0.01680
G1 X112.211 Y131.692 E0.12716
G1 X111.677 Y131.692 E0.01680
G1 X114.537 Y134.553 E0.12716
G1 X114.003 Y134.553 E0.01680
G1 X111.142 Y131.692 E0.12716
G1 X110.608 Y131.692 E0.01680
G1 X113.468 Y134.553 E0.12716
G1 X112.933 Y134.553 E0.01680
G1 X110.073 Y131.692 E0.12716
G1 X109.809 Y131.692 E0.00830
G1 X109.673 Y131.827 E0.00601
G1 X112.399 Y134.553 E0.12115
G1 X111.864 Y134.553 E0.01680
G1 X109.406 Y132.094 E0.10928
G1 X109.138 Y132.361 E0.01188
G1 X111.330 Y134.553 E0.09741
G1 X110.795 Y134.553 E0.01680
G1 X108.871 Y132.628 E0.08554
G1 X108.603 Y132.895 E0.01188
G1 X110.260 Y134.553 E0.07368
G1 X109.726 Y134.553 E0.01680
G1 X108.335 Y133.162 E0.06181
G1 X108.068 Y133.429 E0.01188
G1 X109.191 Y134.553 E0.04994
G1 X108.656 Y134.553 E0.01680
G1 X107.800 Y133.696 E0.03807
G1 X107.532 Y133.963 E0.01188
G1 X108.122 Y134.553 E0.02620
G1 X107.587 Y134.553 E0.01680
G1 X107.265 Y134.230 E0.01433
G1 X106.997 Y134.497 E0.01188
G1 X107.226 Y134.726 E0.01016
M204 S1250
G1 E-2.24000 F2400.000
;WIPE_START
G1 F7200.000
G1 X106.997 Y134.497 E-0.10233
G1 X107.265 Y134.230 E-0.11971
G1 X107.587 Y134.553 E-0.14438
G1 X108.122 Y134.553 E-0.16929
G1 X107.532 Y133.963 E-0.26395
G1 X107.784 Y133.713 E-0.11234
;WIPE_END
G1 E-0.04800 F2400.000
G1 Z0.400 F9000.000
G1 X105.983 Y134.948
G1 Z0.200
G1 E3.20000 F1500.000
M204 S800
;TYPE:Gap fill
;WIDTH:0.22997
G1 F1200.000
G1 X105.445 Y135.170 E0.00905
M204 S1250
G1 E-2.24000 F2400.000
;WIPE_START
G1 F7200.000
G1 X105.983 Y134.948 E-0.18431
;WIPE_END
G1 E-0.77569 F2400.000
G1 Z0.400 F9000.000
G1 X153.692 Y87.239
G1 Z0.200
G1 E3.20000 F1500.000
M204 S800
;WIDTH:0.229971
G1 F1200.000
G1 X153.914 Y86.701 E0.00905
M204 S1250
; stop printing object skjerm_feste v1.stl id:1 copy 0
; printing object skjerm_feste v1.stl id:0 copy 0
G1 E-2.24000 F2400.000
;WIPE_START
G1 F7200.000
G1 X153.692 Y87.239 E-0.18431
;WIPE_END
G1 E-0.77569 F2400.000
G1 Z0.400 F9000.000
G1 X136.094 Y70.961
G1 Z0.200
G1 E3.20000 F1500.000
M204 S800
;TYPE:Perimeter
;WIDTH:0.42
G1 F1200.000
G1 X135.667 Y71.337 E0.01783
G1 X132.568 Y74.442 E0.13754
G1 X92.107 Y74.524 E1.26864
G1 X92.189 Y114.985 E1.26864
G1 X89.083 Y118.110 E0.13813
G1 X88.723 Y118.522 E0.01717
G1 X88.741 Y118.386 E0.00432
G1 X88.767 Y117.356 E0.03230
G1 X88.674 Y71.105 E1.45016
G1 X134.925 Y71.011 E1.45016
G1 X136.034 Y70.970 E0.03482
M204 S1250
G1 E-2.24000 F2400.000
;WIPE_START
G1 F7200.000
